MODULE mill_cw4n_33_tooltest_T_ROB1
VAR extjoint extj := [9E9,9E9,9E9,9E9,9E9,9E9];
VAR confdata conf := [0,0,0,0];
PERS tooldata Tool_Mill_Spindle:=[TRUE,[[294,2,179],[0.70711,0,0.70711,0]],[3,[294,2,179],[1,0,0,0],0,0,0]];
TASK PERS wobjdata DefaultFrame:=[FALSE,TRUE,"",[[0,0,0],[1,0,0,0]],[[0,0,0],[1,0,0,0]]];
TASK PERS speeddata Speed000:=[100,180,5000,1080];
TASK PERS speeddata Speed001:=[46,180,5000,1080];
TASK PERS zonedata Zone000:=[FALSE,10,10,10,1,10,1];
TASK PERS zonedata Zone001:=[FALSE,10,10,10,1,10,1];
PERS num Wait000:=2;
PROC Main()
ConfL \Off;
MoveAbsJ [[0,0,0,0,10,0],extj],Speed000,Zone000,Tool_Mill_Spindle;
WaitTime Wait000;
MoveL [[1161.47,-152.426,395.545],[0.01964,-0.29103,0.95559,0.04201],conf,extj],Speed001,Zone001,Tool_Mill_Spindle \WObj:=DefaultFrame;
MoveL [[1161.889,-149.492,363.682],[0.0168,-0.29112,0.95579,0.03787],conf,extj],Speed001,Zone001,Tool_Mill_Spindle \WObj:=DefaultFrame;
MoveL [[1162.575,-151.336,363.507],[0.01769,-0.2911,0.95561,0.04184],conf,extj],Speed001,Zone001,Tool_Mill_Spindle \WObj:=DefaultFrame;
MoveL [[1163.455,-153.075,363.31],[0.0191,-0.29104,0.95534,0.0475],conf,extj],Speed001,Zone001,Tool_Mill_Spindle \WObj:=DefaultFrame;
MoveL [[1164.552,-154.697,363.085],[0.02092,-0.29095,0.95496,0.05441],conf,extj],Speed001,Zone001,Tool_Mill_Spindle \WObj:=DefaultFrame;
MoveL [[1165.635,-156.313,362.807],[0.02325,-0.2908,0.95444,0.06274],conf,extj],Speed001,Zone001,Tool_Mill_Spindle \WObj:=DefaultFrame;
MoveL [[1166.711,-157.928,362.467],[0.02603,-0.2906,0.95375,0.07239],conf,extj],Speed001,Zone001,Tool_Mill_Spindle \WObj:=DefaultFrame;
MoveL [[1167.864,-159.483,362.071],[0.02904,-0.29033,0.9529,0.08276],conf,extj],Speed001,Zone001,Tool_Mill_Spindle \WObj:=DefaultFrame;
MoveL [[1169.302,-160.794,361.681],[0.03203,-0.29004,0.95194,0.09302],conf,extj],Speed001,Zone001,Tool_Mill_Spindle \WObj:=DefaultFrame;
MoveL [[1170.736,-162.085,361.229],[0.03561,-0.28963,0.95066,0.10526],conf,extj],Speed001,Zone001,Tool_Mill_Spindle \WObj:=DefaultFrame;
MoveL [[1172.159,-163.363,360.701],[0.03962,-0.28911,0.94903,0.11909],conf,extj],Speed001,Zone001,Tool_Mill_Spindle \WObj:=DefaultFrame;
MoveL [[1173.568,-164.617,360.091],[0.04389,-0.28848,0.94706,0.13392],conf,extj],Speed001,Zone001,Tool_Mill_Spindle \WObj:=DefaultFrame;
MoveL [[1175.201,-165.596,359.546],[0.04737,-0.28792,0.94526,0.14611],conf,extj],Speed001,Zone001,Tool_Mill_Spindle \WObj:=DefaultFrame;
MoveL [[1176.897,-166.471,359],[0.05052,-0.28738,0.94347,0.15724],conf,extj],Speed001,Zone001,Tool_Mill_Spindle \WObj:=DefaultFrame;
MoveL [[1178.572,-167.342,358.396],[0.05365,-0.2868,0.94156,0.16834],conf,extj],Speed001,Zone001,Tool_Mill_Spindle \WObj:=DefaultFrame;
MoveL [[1180.249,-168.174,357.761],[0.05658,-0.28623,0.93963,0.17881],conf,extj],Speed001,Zone001,Tool_Mill_Spindle \WObj:=DefaultFrame;
MoveL [[1182.014,-168.849,357.201],[0.05892,-0.28575,0.93799,0.18722],conf,extj],Speed001,Zone001,Tool_Mill_Spindle \WObj:=DefaultFrame;
MoveL [[1183.889,-169.341,356.764],[0.06062,-0.2854,0.93674,0.19334],conf,extj],Speed001,Zone001,Tool_Mill_Spindle \WObj:=DefaultFrame;
MoveL [[1185.761,-169.822,356.314],[0.06227,-0.28505,0.93552,0.19919],conf,extj],Speed001,Zone001,Tool_Mill_Spindle \WObj:=DefaultFrame;
MoveL [[1187.626,-170.306,355.838],[0.06391,-0.28468,0.93428,0.20492],conf,extj],Speed001,Zone001,Tool_Mill_Spindle \WObj:=DefaultFrame;
MoveL [[1189.507,-170.736,355.393],[0.06536,-0.28435,0.93316,0.20995],conf,extj],Speed001,Zone001,Tool_Mill_Spindle \WObj:=DefaultFrame;
MoveL [[1191.478,-170.951,355.16],[0.06616,-0.28417,0.93257,0.21257],conf,extj],Speed001,Zone001,Tool_Mill_Spindle \WObj:=DefaultFrame;
MoveL [[1193.447,-171.171,354.917],[0.06699,-0.28398,0.93196,0.21521],conf,extj],Speed001,Zone001,Tool_Mill_Spindle \WObj:=DefaultFrame;
MoveL [[1195.413,-171.4,354.658],[0.06784,-0.28378,0.93134,0.21788],conf,extj],Speed001,Zone001,Tool_Mill_Spindle \WObj:=DefaultFrame;
MoveL [[1197.382,-171.617,354.407],[0.06866,-0.28359,0.93075,0.22039],conf,extj],Speed001,Zone001,Tool_Mill_Spindle \WObj:=DefaultFrame;
MoveL [[1199.381,-171.651,354.364],[0.06895,-0.28352,0.93061,0.22098],conf,extj],Speed001,Zone001,Tool_Mill_Spindle \WObj:=DefaultFrame;
MoveL [[1201.381,-171.689,354.317],[0.06925,-0.28345,0.93046,0.22161],conf,extj],Speed001,Zone001,Tool_Mill_Spindle \WObj:=DefaultFrame;
MoveL [[1203.38,-171.738,354.258],[0.06956,-0.28338,0.93028,0.22234],conf,extj],Speed001,Zone001,Tool_Mill_Spindle \WObj:=DefaultFrame;
MoveL [[1205.379,-171.762,354.229],[0.0698,-0.28332,0.93017,0.2228],conf,extj],Speed001,Zone001,Tool_Mill_Spindle \WObj:=DefaultFrame;
MoveL [[1207.379,-171.732,354.263],[0.06987,-0.2833,0.93019,0.22271],conf,extj],Speed001,Zone001,Tool_Mill_Spindle \WObj:=DefaultFrame;
MoveL [[1209.378,-171.696,354.306],[0.06989,-0.2833,0.93023,0.22255],conf,extj],Speed001,Zone001,Tool_Mill_Spindle \WObj:=DefaultFrame;
MoveL [[1211.377,-171.653,354.358],[0.06986,-0.28331,0.93028,0.22233],conf,extj],Speed001,Zone001,Tool_Mill_Spindle \WObj:=DefaultFrame;
MoveL [[1213.377,-171.635,354.38],[0.06986,-0.28331,0.93027,0.22237],conf,extj],Speed001,Zone001,Tool_Mill_Spindle \WObj:=DefaultFrame;
MoveL [[1215.375,-171.668,354.343],[0.06998,-0.28328,0.93014,0.22292],conf,extj],Speed001,Zone001,Tool_Mill_Spindle \WObj:=DefaultFrame;
MoveL [[1217.374,-171.673,354.337],[0.06999,-0.28328,0.93007,0.22321],conf,extj],Speed001,Zone001,Tool_Mill_Spindle \WObj:=DefaultFrame;
MoveL [[1219.373,-171.662,354.35],[0.06994,-0.28329,0.93004,0.22334],conf,extj],Speed001,Zone001,Tool_Mill_Spindle \WObj:=DefaultFrame;
MoveL [[1221.371,-171.679,354.327],[0.06997,-0.28328,0.92994,0.22377],conf,extj],Speed001,Zone001,Tool_Mill_Spindle \WObj:=DefaultFrame;
MoveL [[1223.368,-171.718,354.279],[0.07006,-0.28326,0.92978,0.22441],conf,extj],Speed001,Zone001,Tool_Mill_Spindle \WObj:=DefaultFrame;
MoveL [[1225.362,-171.803,354.174],[0.07027,-0.28321,0.92951,0.22554],conf,extj],Speed001,Zone001,Tool_Mill_Spindle \WObj:=DefaultFrame;
MoveL [[1227.355,-171.892,354.061],[0.07048,-0.28316,0.92922,0.22671],conf,extj],Speed001,Zone001,Tool_Mill_Spindle \WObj:=DefaultFrame;
MoveL [[1229.348,-171.975,353.953],[0.07068,-0.28311,0.92895,0.22782],conf,extj],Speed001,Zone001,Tool_Mill_Spindle \WObj:=DefaultFrame;
MoveL [[1231.341,-172.053,353.849],[0.07085,-0.28307,0.92869,0.22888],conf,extj],Speed001,Zone001,Tool_Mill_Spindle \WObj:=DefaultFrame;
MoveL [[1233.328,-172.177,353.685],[0.07116,-0.283,0.92832,0.23038],conf,extj],Speed001,Zone001,Tool_Mill_Spindle \WObj:=DefaultFrame;
MoveL [[1235.315,-172.288,353.534],[0.07144,-0.28293,0.92798,0.23174],conf,extj],Speed001,Zone001,Tool_Mill_Spindle \WObj:=DefaultFrame;
MoveL [[1237.308,-172.357,353.433],[0.07163,-0.28288,0.92775,0.23267],conf,extj],Speed001,Zone001,Tool_Mill_Spindle \WObj:=DefaultFrame;
MoveL [[1239.29,-172.497,353.239],[0.07203,-0.28278,0.92734,0.23427],conf,extj],Speed001,Zone001,Tool_Mill_Spindle \WObj:=DefaultFrame;
MoveL [[1241.284,-172.57,353.129],[0.07227,-0.28272,0.92711,0.23519],conf,extj],Speed001,Zone001,Tool_Mill_Spindle \WObj:=DefaultFrame;
MoveL [[1243.278,-172.644,353.016],[0.07254,-0.28265,0.92688,0.23611],conf,extj],Speed001,Zone001,Tool_Mill_Spindle \WObj:=DefaultFrame;
MoveL [[1245.272,-172.719,352.901],[0.07284,-0.28257,0.92664,0.23702],conf,extj],Speed001,Zone001,Tool_Mill_Spindle \WObj:=DefaultFrame;
MoveL [[1247.267,-172.795,352.786],[0.07318,-0.28249,0.92642,0.23791],conf,extj],Speed001,Zone001,Tool_Mill_Spindle \WObj:=DefaultFrame;
MoveL [[1249.264,-172.842,352.707],[0.07347,-0.28241,0.92626,0.23852],conf,extj],Speed001,Zone001,Tool_Mill_Spindle \WObj:=DefaultFrame;
MoveL [[1251.26,-172.905,352.61],[0.07382,-0.28232,0.92606,0.23927],conf,extj],Speed001,Zone001,Tool_Mill_Spindle \WObj:=DefaultFrame;
MoveL [[1253.26,-172.932,352.56],[0.07406,-0.28226,0.92596,0.23969],conf,extj],Speed001,Zone001,Tool_Mill_Spindle \WObj:=DefaultFrame;
MoveL [[1255.258,-172.967,352.502],[0.07432,-0.28219,0.92583,0.24018],conf,extj],Speed001,Zone001,Tool_Mill_Spindle \WObj:=DefaultFrame;
MoveL [[1257.259,-172.963,352.497],[0.07448,-0.28215,0.92579,0.24032],conf,extj],Speed001,Zone001,Tool_Mill_Spindle \WObj:=DefaultFrame;
MoveL [[1259.259,-172.947,352.511],[0.07459,-0.28212,0.92579,0.24034],conf,extj],Speed001,Zone001,Tool_Mill_Spindle \WObj:=DefaultFrame;
MoveL [[1261.26,-172.929,352.528],[0.07467,-0.2821,0.92578,0.24036],conf,extj],Speed001,Zone001,Tool_Mill_Spindle \WObj:=DefaultFrame;
MoveL [[1263.26,-172.911,352.545],[0.07471,-0.28209,0.92577,0.24039],conf,extj],Speed001,Zone001,Tool_Mill_Spindle \WObj:=DefaultFrame;
MoveL [[1265.258,-172.869,352.596],[0.07466,-0.2821,0.92582,0.2402],conf,extj],Speed001,Zone001,Tool_Mill_Spindle \WObj:=DefaultFrame;
MoveL [[1267.252,-172.783,352.706],[0.07447,-0.28215,0.92598,0.2396],conf,extj],Speed001,Zone001,Tool_Mill_Spindle \WObj:=DefaultFrame;
MoveL [[1269.246,-172.693,352.821],[0.07427,-0.2822,0.92614,0.23896],conf,extj],Speed001,Zone001,Tool_Mill_Spindle \WObj:=DefaultFrame;
MoveL [[1271.241,-172.605,352.931],[0.07408,-0.28225,0.92631,0.23834],conf,extj],Speed001,Zone001,Tool_Mill_Spindle \WObj:=DefaultFrame;
MoveL [[1273.228,-172.481,353.089],[0.07379,-0.28232,0.92656,0.23736],conf,extj],Speed001,Zone001,Tool_Mill_Spindle \WObj:=DefaultFrame;
MoveL [[1275.202,-172.296,353.327],[0.07333,-0.28244,0.92696,0.23579],conf,extj],Speed001,Zone001,Tool_Mill_Spindle \WObj:=DefaultFrame;
MoveL [[1277.177,-172.111,353.56],[0.07289,-0.28254,0.92736,0.2342],conf,extj],Speed001,Zone001,Tool_Mill_Spindle \WObj:=DefaultFrame;
MoveL [[1279.153,-171.925,353.792],[0.07247,-0.28265,0.92778,0.23257],conf,extj],Speed001,Zone001,Tool_Mill_Spindle \WObj:=DefaultFrame;
MoveL [[1281.125,-171.732,354.031],[0.07204,-0.28275,0.92821,0.23083],conf,extj],Speed001,Zone001,Tool_Mill_Spindle \WObj:=DefaultFrame;
MoveL [[1283.064,-171.442,354.387],[0.07134,-0.28291,0.92889,0.22811],conf,extj],Speed001,Zone001,Tool_Mill_Spindle \WObj:=DefaultFrame;
MoveL [[1285,-171.137,354.754],[0.07057,-0.28309,0.92961,0.22518],conf,extj],Speed001,Zone001,Tool_Mill_Spindle \WObj:=DefaultFrame;
MoveL [[1286.933,-170.821,355.125],[0.06973,-0.28329,0.93036,0.2221],conf,extj],Speed001,Zone001,Tool_Mill_Spindle \WObj:=DefaultFrame;
MoveL [[1288.867,-170.503,355.49],[0.06883,-0.28349,0.93111,0.21892],conf,extj],Speed001,Zone001,Tool_Mill_Spindle \WObj:=DefaultFrame;
MoveL [[1290.736,-170.056,355.987],[0.06749,-0.28378,0.93219,0.21435],conf,extj],Speed001,Zone001,Tool_Mill_Spindle \WObj:=DefaultFrame;
MoveL [[1292.599,-169.584,356.491],[0.06602,-0.28409,0.93332,0.2094],conf,extj],Speed001,Zone001,Tool_Mill_Spindle \WObj:=DefaultFrame;
MoveL [[1294.469,-169.114,356.972],[0.06453,-0.2844,0.93444,0.20437],conf,extj],Speed001,Zone001,Tool_Mill_Spindle \WObj:=DefaultFrame;
MoveL [[1296.347,-168.65,357.43],[0.06302,-0.2847,0.93555,0.19929],conf,extj],Speed001,Zone001,Tool_Mill_Spindle \WObj:=DefaultFrame;
MoveL [[1298.153,-168.058,357.983],[0.06104,-0.28508,0.93695,0.19267],conf,extj],Speed001,Zone001,Tool_Mill_Spindle \WObj:=DefaultFrame;
MoveL [[1299.937,-167.411,358.553],[0.05885,-0.28547,0.93846,0.18528],conf,extj],Speed001,Zone001,Tool_Mill_Spindle \WObj:=DefaultFrame;
MoveL [[1301.72,-166.74,359.109],[0.05655,-0.28587,0.93999,0.17748],conf,extj],Speed001,Zone001,Tool_Mill_Spindle \WObj:=DefaultFrame;
MoveL [[1303.517,-166.076,359.624],[0.05427,-0.28624,0.94145,0.16966],conf,extj],Speed001,Zone001,Tool_Mill_Spindle \WObj:=DefaultFrame;
MoveL [[1305.261,-165.313,360.175],[0.05164,-0.28664,0.94307,0.1606],conf,extj],Speed001,Zone001,Tool_Mill_Spindle \WObj:=DefaultFrame;
MoveL [[1306.938,-164.431,360.758],[0.04861,-0.28706,0.94482,0.15015],conf,extj],Speed001,Zone001,Tool_Mill_Spindle \WObj:=DefaultFrame;
MoveL [[1308.62,-163.526,361.302],[0.04556,-0.28744,0.94648,0.13958],conf,extj],Speed001,Zone001,Tool_Mill_Spindle \WObj:=DefaultFrame;
MoveL [[1310.312,-162.611,361.801],[0.04259,-0.28778,0.94798,0.12923],conf,extj],Speed001,Zone001,Tool_Mill_Spindle \WObj:=DefaultFrame;
MoveL [[1312.01,-161.686,362.257],[0.03975,-0.28807,0.94932,0.11927],conf,extj],Speed001,Zone001,Tool_Mill_Spindle \WObj:=DefaultFrame;
MoveL [[1313.571,-160.561,362.75],[0.03654,-0.28836,0.9507,0.10807],conf,extj],Speed001,Zone001,Tool_Mill_Spindle \WObj:=DefaultFrame;
MoveL [[1315.128,-159.413,363.195],[0.03365,-0.28859,0.95183,0.09796],conf,extj],Speed001,Zone001,Tool_Mill_Spindle \WObj:=DefaultFrame;
MoveL [[1316.712,-158.28,363.585],[0.03107,-0.28877,0.95276,0.08884],conf,extj],Speed001,Zone001,Tool_Mill_Spindle \WObj:=DefaultFrame;
MoveL [[1318.301,-157.138,363.933],[0.02859,-0.28892,0.95356,0.08012],conf,extj],Speed001,Zone001,Tool_Mill_Spindle \WObj:=DefaultFrame;
MoveL [[1319.772,-155.86,364.27],[0.02598,-0.28906,0.95432,0.07106],conf,extj],Speed001,Zone001,Tool_Mill_Spindle \WObj:=DefaultFrame;
MoveL [[1321.218,-154.541,364.567],[0.02355,-0.28916,0.95494,0.06265],conf,extj],Speed001,Zone001,Tool_Mill_Spindle \WObj:=DefaultFrame;
MoveL [[1322.67,-153.218,364.821],[0.02141,-0.28924,0.95542,0.05529],conf,extj],Speed001,Zone001,Tool_Mill_Spindle \WObj:=DefaultFrame;
MoveL [[1324.124,-151.892,365.037],[0.01959,-0.28929,0.95578,0.04909],conf,extj],Speed001,Zone001,Tool_Mill_Spindle \WObj:=DefaultFrame;
MoveL [[1325.505,-150.49,365.231],[0.01806,-0.28933,0.95605,0.04391],conf,extj],Speed001,Zone001,Tool_Mill_Spindle \WObj:=DefaultFrame;
MoveL [[1326.806,-149.007,365.406],[0.01689,-0.28936,0.95624,0.03999],conf,extj],Speed001,Zone001,Tool_Mill_Spindle \WObj:=DefaultFrame;
MoveL [[1328.113,-147.521,365.56],[0.01595,-0.28938,0.95637,0.03686],conf,extj],Speed001,Zone001,Tool_Mill_Spindle \WObj:=DefaultFrame;
MoveL [[1329.421,-146.034,365.695],[0.01507,-0.2894,0.95649,0.034],conf,extj],Speed001,Zone001,Tool_Mill_Spindle \WObj:=DefaultFrame;
MoveL [[1330.687,-144.512,365.816],[0.01424,-0.28941,0.95659,0.03137],conf,extj],Speed001,Zone001,Tool_Mill_Spindle \WObj:=DefaultFrame;
MoveL [[1331.83,-142.891,365.924],[0.01345,-0.28942,0.95667,0.0289],conf,extj],Speed001,Zone001,Tool_Mill_Spindle \WObj:=DefaultFrame;
MoveL [[1332.971,-141.269,366.016],[0.01275,-0.28943,0.95674,0.02678],conf,extj],Speed001,Zone001,Tool_Mill_Spindle \WObj:=DefaultFrame;
MoveL [[1334.116,-139.644,366.096],[0.01215,-0.28944,0.95679,0.025],conf,extj],Speed001,Zone001,Tool_Mill_Spindle \WObj:=DefaultFrame;
MoveL [[1335.247,-138.009,366.164],[0.01165,-0.28945,0.95683,0.02354],conf,extj],Speed001,Zone001,Tool_Mill_Spindle \WObj:=DefaultFrame;
MoveL [[1336.22,-136.274,366.223],[0.01115,-0.28945,0.95687,0.02212],conf,extj],Speed001,Zone001,Tool_Mill_Spindle \WObj:=DefaultFrame;
MoveL [[1337.194,-134.539,366.272],[0.01067,-0.28946,0.95691,0.02074],conf,extj],Speed001,Zone001,Tool_Mill_Spindle \WObj:=DefaultFrame;
MoveL [[1338.168,-132.804,366.311],[0.0102,-0.28946,0.95694,0.01942],conf,extj],Speed001,Zone001,Tool_Mill_Spindle \WObj:=DefaultFrame;
MoveL [[1339.142,-131.067,366.34],[0.00975,-0.28946,0.95697,0.01814],conf,extj],Speed001,Zone001,Tool_Mill_Spindle \WObj:=DefaultFrame;
MoveL [[1339.955,-129.251,366.359],[0.0093,-0.28947,0.95699,0.01686],conf,extj],Speed001,Zone001,Tool_Mill_Spindle \WObj:=DefaultFrame;
MoveL [[1340.75,-127.426,366.368],[0.00887,-0.28947,0.95702,0.01563],conf,extj],Speed001,Zone001,Tool_Mill_Spindle \WObj:=DefaultFrame;
MoveL [[1341.544,-125.6,366.367],[0.00847,-0.28947,0.95704,0.0145],conf,extj],Speed001,Zone001,Tool_Mill_Spindle \WObj:=DefaultFrame;
MoveL [[1342.339,-123.773,366.358],[0.0081,-0.28947,0.95706,0.01349],conf,extj],Speed001,Zone001,Tool_Mill_Spindle \WObj:=DefaultFrame;
MoveL [[1343.002,-121.895,366.34],[0.00777,-0.28947,0.95707,0.01257],conf,extj],Speed001,Zone001,Tool_Mill_Spindle \WObj:=DefaultFrame;
MoveL [[1343.613,-119.998,366.314],[0.00748,-0.28947,0.95708,0.01177],conf,extj],Speed001,Zone001,Tool_Mill_Spindle \WObj:=DefaultFrame;
MoveL [[1344.224,-118.1,366.282],[0.00722,-0.28947,0.95709,0.01109],conf,extj],Speed001,Zone001,Tool_Mill_Spindle \WObj:=DefaultFrame;
MoveL [[1344.835,-116.201,366.245],[0.00701,-0.28947,0.9571,0.01052],conf,extj],Speed001,Zone001,Tool_Mill_Spindle \WObj:=DefaultFrame;
MoveL [[1345.362,-114.278,366.203],[0.00684,-0.28947,0.95711,0.01006],conf,extj],Speed001,Zone001,Tool_Mill_Spindle \WObj:=DefaultFrame;
MoveL [[1345.817,-112.334,366.156],[0.00671,-0.28947,0.95711,0.00971],conf,extj],Speed001,Zone001,Tool_Mill_Spindle \WObj:=DefaultFrame;
MoveL [[1346.273,-110.389,366.107],[0.00663,-0.28947,0.95712,0.00947],conf,extj],Speed001,Zone001,Tool_Mill_Spindle \WObj:=DefaultFrame;
MoveL [[1346.728,-108.443,366.056],[0.00659,-0.28947,0.95712,0.00934],conf,extj],Speed001,Zone001,Tool_Mill_Spindle \WObj:=DefaultFrame;
MoveL [[1347.15,-106.49,366.004],[0.00659,-0.28947,0.95712,0.00933],conf,extj],Speed001,Zone001,Tool_Mill_Spindle \WObj:=DefaultFrame;
MoveL [[1347.514,-104.524,365.951],[0.00663,-0.28947,0.95712,0.00939],conf,extj],Speed001,Zone001,Tool_Mill_Spindle \WObj:=DefaultFrame;
MoveL [[1347.878,-102.557,365.9],[0.00668,-0.28947,0.95712,0.00948],conf,extj],Speed001,Zone001,Tool_Mill_Spindle \WObj:=DefaultFrame;
MoveL [[1348.242,-100.59,365.849],[0.00674,-0.28947,0.95711,0.0096],conf,extj],Speed001,Zone001,Tool_Mill_Spindle \WObj:=DefaultFrame;
MoveL [[1348.614,-98.624,365.799],[0.00682,-0.28947,0.95711,0.00974],conf,extj],Speed001,Zone001,Tool_Mill_Spindle \WObj:=DefaultFrame;
MoveL [[1349.021,-96.665,365.752],[0.00691,-0.28947,0.95711,0.00991],conf,extj],Speed001,Zone001,Tool_Mill_Spindle \WObj:=DefaultFrame;
MoveL [[1349.428,-94.706,365.706],[0.007,-0.28947,0.95711,0.0101],conf,extj],Speed001,Zone001,Tool_Mill_Spindle \WObj:=DefaultFrame;
MoveL [[1349.835,-92.747,365.661],[0.00709,-0.28947,0.95711,0.01029],conf,extj],Speed001,Zone001,Tool_Mill_Spindle \WObj:=DefaultFrame;
MoveL [[1350.245,-90.788,365.618],[0.00717,-0.28947,0.9571,0.01046],conf,extj],Speed001,Zone001,Tool_Mill_Spindle \WObj:=DefaultFrame;
MoveL [[1350.879,-88.891,365.58],[0.00725,-0.28947,0.9571,0.01061],conf,extj],Speed001,Zone001,Tool_Mill_Spindle \WObj:=DefaultFrame;
MoveL [[1351.513,-86.993,365.543],[0.00731,-0.28947,0.9571,0.01074],conf,extj],Speed001,Zone001,Tool_Mill_Spindle \WObj:=DefaultFrame;
MoveL [[1352.147,-85.096,365.508],[0.00737,-0.28947,0.9571,0.01086],conf,extj],Speed001,Zone001,Tool_Mill_Spindle \WObj:=DefaultFrame;
MoveL [[1352.781,-83.198,365.473],[0.00742,-0.28947,0.9571,0.01096],conf,extj],Speed001,Zone001,Tool_Mill_Spindle \WObj:=DefaultFrame;
MoveL [[1353.63,-81.39,365.442],[0.00745,-0.28947,0.95709,0.01106],conf,extj],Speed001,Zone001,Tool_Mill_Spindle \WObj:=DefaultFrame;
MoveL [[1354.519,-79.598,365.414],[0.00749,-0.28947,0.95709,0.01116],conf,extj],Speed001,Zone001,Tool_Mill_Spindle \WObj:=DefaultFrame;
MoveL [[1355.409,-77.806,365.386],[0.00752,-0.28947,0.95709,0.01126],conf,extj],Speed001,Zone001,Tool_Mill_Spindle \WObj:=DefaultFrame;
MoveL [[1356.298,-76.015,365.358],[0.00755,-0.28947,0.95709,0.01135],conf,extj],Speed001,Zone001,Tool_Mill_Spindle \WObj:=DefaultFrame;
MoveL [[1357.223,-74.241,365.332],[0.00757,-0.28947,0.95709,0.01145],conf,extj],Speed001,Zone001,Tool_Mill_Spindle \WObj:=DefaultFrame;
MoveL [[1358.165,-72.476,365.307],[0.0076,-0.28947,0.95709,0.01155],conf,extj],Speed001,Zone001,Tool_Mill_Spindle \WObj:=DefaultFrame;
MoveL [[1359.107,-70.712,365.283],[0.00764,-0.28947,0.95709,0.01165],conf,extj],Speed001,Zone001,Tool_Mill_Spindle \WObj:=DefaultFrame;
MoveL [[1360.049,-68.947,365.26],[0.00768,-0.28947,0.95708,0.01175],conf,extj],Speed001,Zone001,Tool_Mill_Spindle \WObj:=DefaultFrame;
MoveL [[1360.912,-67.144,365.236],[0.00773,-0.28947,0.95708,0.01186],conf,extj],Speed001,Zone001,Tool_Mill_Spindle \WObj:=DefaultFrame;
MoveL [[1361.692,-65.302,365.211],[0.00779,-0.28947,0.95708,0.01197],conf,extj],Speed001,Zone001,Tool_Mill_Spindle \WObj:=DefaultFrame;
MoveL [[1362.473,-63.459,365.188],[0.00786,-0.28947,0.95708,0.01207],conf,extj],Speed001,Zone001,Tool_Mill_Spindle \WObj:=DefaultFrame;
MoveL [[1363.253,-61.617,365.165],[0.00794,-0.28947,0.95708,0.01218],conf,extj],Speed001,Zone001,Tool_Mill_Spindle \WObj:=DefaultFrame;
MoveL [[1363.934,-59.742,365.142],[0.00803,-0.28947,0.95708,0.01227],conf,extj],Speed001,Zone001,Tool_Mill_Spindle \WObj:=DefaultFrame;
MoveL [[1364.398,-57.796,365.117],[0.00812,-0.28947,0.95707,0.01235],conf,extj],Speed001,Zone001,Tool_Mill_Spindle \WObj:=DefaultFrame;
MoveL [[1364.861,-55.85,365.093],[0.00822,-0.28946,0.95707,0.01242],conf,extj],Speed001,Zone001,Tool_Mill_Spindle \WObj:=DefaultFrame;
MoveL [[1365.325,-53.904,365.07],[0.00832,-0.28946,0.95707,0.01247],conf,extj],Speed001,Zone001,Tool_Mill_Spindle \WObj:=DefaultFrame;
MoveL [[1365.73,-51.952,365.047],[0.00842,-0.28946,0.95707,0.01252],conf,extj],Speed001,Zone001,Tool_Mill_Spindle \WObj:=DefaultFrame;
MoveL [[1365.785,-49.954,365.019],[0.00851,-0.28946,0.95707,0.01254],conf,extj],Speed001,Zone001,Tool_Mill_Spindle \WObj:=DefaultFrame;
MoveL [[1365.839,-47.955,364.993],[0.0086,-0.28946,0.95707,0.01255],conf,extj],Speed001,Zone001,Tool_Mill_Spindle \WObj:=DefaultFrame;
MoveL [[1365.894,-45.956,364.966],[0.00868,-0.28946,0.95707,0.01256],conf,extj],Speed001,Zone001,Tool_Mill_Spindle \WObj:=DefaultFrame;
MoveL [[1365.949,-43.956,364.94],[0.00875,-0.28946,0.95707,0.01256],conf,extj],Speed001,Zone001,Tool_Mill_Spindle \WObj:=DefaultFrame;
MoveL [[1365.563,-41.996,364.909],[0.0088,-0.28946,0.95707,0.01255],conf,extj],Speed001,Zone001,Tool_Mill_Spindle \WObj:=DefaultFrame;
MoveL [[1365.165,-40.037,364.878],[0.00884,-0.28946,0.95707,0.01253],conf,extj],Speed001,Zone001,Tool_Mill_Spindle \WObj:=DefaultFrame;
MoveL [[1364.767,-38.077,364.846],[0.00887,-0.28946,0.95707,0.01253],conf,extj],Speed001,Zone001,Tool_Mill_Spindle \WObj:=DefaultFrame;
MoveL [[1364.368,-36.118,364.815],[0.0089,-0.28945,0.95707,0.01254],conf,extj],Speed001,Zone001,Tool_Mill_Spindle \WObj:=DefaultFrame;
MoveL [[1363.596,-34.284,364.781],[0.0089,-0.28946,0.95707,0.01256],conf,extj],Speed001,Zone001,Tool_Mill_Spindle \WObj:=DefaultFrame;
MoveL [[1362.734,-32.48,364.747],[0.00889,-0.28946,0.95707,0.01259],conf,extj],Speed001,Zone001,Tool_Mill_Spindle \WObj:=DefaultFrame;
MoveL [[1361.871,-30.675,364.712],[0.00889,-0.28946,0.95707,0.01264],conf,extj],Speed001,Zone001,Tool_Mill_Spindle \WObj:=DefaultFrame;
MoveL [[1361.008,-28.871,364.678],[0.00887,-0.28946,0.95707,0.01269],conf,extj],Speed001,Zone001,Tool_Mill_Spindle \WObj:=DefaultFrame;
MoveL [[1359.873,-27.242,364.644],[0.00884,-0.28946,0.95707,0.01274],conf,extj],Speed001,Zone001,Tool_Mill_Spindle \WObj:=DefaultFrame;
MoveL [[1358.584,-25.713,364.609],[0.0088,-0.28946,0.95706,0.01279],conf,extj],Speed001,Zone001,Tool_Mill_Spindle \WObj:=DefaultFrame;
MoveL [[1357.294,-24.184,364.575],[0.00876,-0.28946,0.95706,0.01283],conf,extj],Speed001,Zone001,Tool_Mill_Spindle \WObj:=DefaultFrame;
MoveL [[1356.005,-22.655,364.541],[0.00871,-0.28946,0.95706,0.01286],conf,extj],Speed001,Zone001,Tool_Mill_Spindle \WObj:=DefaultFrame;
MoveL [[1354.557,-21.298,364.508],[0.00866,-0.28946,0.95706,0.01288],conf,extj],Speed001,Zone001,Tool_Mill_Spindle \WObj:=DefaultFrame;
MoveL [[1352.932,-20.132,364.476],[0.0086,-0.28946,0.95706,0.01289],conf,extj],Speed001,Zone001,Tool_Mill_Spindle \WObj:=DefaultFrame;
MoveL [[1351.308,-18.965,364.444],[0.00854,-0.28946,0.95706,0.0129],conf,extj],Speed001,Zone001,Tool_Mill_Spindle \WObj:=DefaultFrame;
MoveL [[1349.687,-17.802,364.412],[0.00847,-0.28946,0.95706,0.01291],conf,extj],Speed001,Zone001,Tool_Mill_Spindle \WObj:=DefaultFrame;
MoveL [[1347.989,-16.773,364.382],[0.00839,-0.28946,0.95706,0.01293],conf,extj],Speed001,Zone001,Tool_Mill_Spindle \WObj:=DefaultFrame;
MoveL [[1346.123,-16.053,364.354],[0.0083,-0.28947,0.95706,0.01296],conf,extj],Speed001,Zone001,Tool_Mill_Spindle \WObj:=DefaultFrame;
MoveL [[1344.257,-15.334,364.328],[0.00821,-0.28947,0.95706,0.013],conf,extj],Speed001,Zone001,Tool_Mill_Spindle \WObj:=DefaultFrame;
MoveL [[1342.39,-14.615,364.302],[0.00812,-0.28947,0.95706,0.01305],conf,extj],Speed001,Zone001,Tool_Mill_Spindle \WObj:=DefaultFrame;
MoveL [[1340.509,-13.96,364.277],[0.00803,-0.28947,0.95706,0.01311],conf,extj],Speed001,Zone001,Tool_Mill_Spindle \WObj:=DefaultFrame;
MoveL [[1338.524,-13.707,364.258],[0.00793,-0.28947,0.95706,0.01316],conf,extj],Speed001,Zone001,Tool_Mill_Spindle \WObj:=DefaultFrame;
MoveL [[1336.54,-13.454,364.239],[0.00784,-0.28947,0.95706,0.01322],conf,extj],Speed001,Zone001,Tool_Mill_Spindle \WObj:=DefaultFrame;
MoveL [[1334.555,-13.201,364.221],[0.00775,-0.28948,0.95706,0.01329],conf,extj],Speed001,Zone001,Tool_Mill_Spindle \WObj:=DefaultFrame;
MoveL [[1332.571,-12.947,364.204],[0.00766,-0.28948,0.95706,0.01335],conf,extj],Speed001,Zone001,Tool_Mill_Spindle \WObj:=DefaultFrame;
MoveL [[1330.582,-13.132,364.193],[0.00758,-0.28948,0.95706,0.01341],conf,extj],Speed001,Zone001,Tool_Mill_Spindle \WObj:=DefaultFrame;
MoveL [[1328.591,-13.329,364.183],[0.00748,-0.28948,0.95706,0.01346],conf,extj],Speed001,Zone001,Tool_Mill_Spindle \WObj:=DefaultFrame;
MoveL [[1326.602,-13.525,364.173],[0.00739,-0.28948,0.95706,0.01352],conf,extj],Speed001,Zone001,Tool_Mill_Spindle \WObj:=DefaultFrame;
MoveL [[1324.614,-13.723,364.165],[0.00729,-0.28948,0.95706,0.01359],conf,extj],Speed001,Zone001,Tool_Mill_Spindle \WObj:=DefaultFrame;
MoveL [[1322.685,-14.228,364.161],[0.00722,-0.28948,0.95706,0.01365],conf,extj],Speed001,Zone001,Tool_Mill_Spindle \WObj:=DefaultFrame;
MoveL [[1320.771,-14.81,364.158],[0.00718,-0.28949,0.95706,0.0137],conf,extj],Speed001,Zone001,Tool_Mill_Spindle \WObj:=DefaultFrame;
MoveL [[1318.858,-15.392,364.155],[0.00717,-0.28949,0.95706,0.01374],conf,extj],Speed001,Zone001,Tool_Mill_Spindle \WObj:=DefaultFrame;
MoveL [[1316.944,-15.973,364.153],[0.0072,-0.28949,0.95706,0.01379],conf,extj],Speed001,Zone001,Tool_Mill_Spindle \WObj:=DefaultFrame;
MoveL [[1315.101,-16.734,364.152],[0.00727,-0.28948,0.95706,0.01382],conf,extj],Speed001,Zone001,Tool_Mill_Spindle \WObj:=DefaultFrame;
MoveL [[1313.3,-17.6,364.152],[0.00744,-0.28948,0.95706,0.01381],conf,extj],Speed001,Zone001,Tool_Mill_Spindle \WObj:=DefaultFrame;
MoveL [[1311.499,-18.466,364.15],[0.0077,-0.28948,0.95705,0.01376],conf,extj],Speed001,Zone001,Tool_Mill_Spindle \WObj:=DefaultFrame;
MoveL [[1309.7,-19.333,364.145],[0.00804,-0.28947,0.95706,0.01367],conf,extj],Speed001,Zone001,Tool_Mill_Spindle \WObj:=DefaultFrame;
MoveL [[1307.932,-20.257,364.139],[0.00844,-0.28947,0.95706,0.01353],conf,extj],Speed001,Zone001,Tool_Mill_Spindle \WObj:=DefaultFrame;
MoveL [[1306.202,-21.251,364.131],[0.00888,-0.28946,0.95706,0.01333],conf,extj],Speed001,Zone001,Tool_Mill_Spindle \WObj:=DefaultFrame;
MoveL [[1304.472,-22.245,364.12],[0.00937,-0.28945,0.95706,0.01307],conf,extj],Speed001,Zone001,Tool_Mill_Spindle \WObj:=DefaultFrame;
MoveL [[1302.742,-23.24,364.105],[0.0099,-0.28944,0.95706,0.01274],conf,extj],Speed001,Zone001,Tool_Mill_Spindle \WObj:=DefaultFrame;
MoveL [[1300.997,-24.207,364.086],[0.01044,-0.28943,0.95706,0.01234],conf,extj],Speed001,Zone001,Tool_Mill_Spindle \WObj:=DefaultFrame;
MoveL [[1299.211,-25.098,364.062],[0.01102,-0.28942,0.95707,0.01184],conf,extj],Speed001,Zone001,Tool_Mill_Spindle \WObj:=DefaultFrame;
MoveL [[1297.425,-25.99,364.035],[0.01147,-0.28941,0.95707,0.0113],conf,extj],Speed001,Zone001,Tool_Mill_Spindle \WObj:=DefaultFrame;
MoveL [[1295.637,-26.883,364.005],[0.01168,-0.2894,0.95708,0.01075],conf,extj],Speed001,Zone001,Tool_Mill_Spindle \WObj:=DefaultFrame;
MoveL [[1293.836,-27.744,363.975],[0.01169,-0.2894,0.95708,0.0102],conf,extj],Speed001,Zone001,Tool_Mill_Spindle \WObj:=DefaultFrame;
MoveL [[1291.923,-28.324,363.937],[0.01158,-0.28939,0.95709,0.00963],conf,extj],Speed001,Zone001,Tool_Mill_Spindle \WObj:=DefaultFrame;
MoveL [[1290.007,-28.905,363.901],[0.01127,-0.28939,0.9571,0.00909],conf,extj],Speed001,Zone001,Tool_Mill_Spindle \WObj:=DefaultFrame;
MoveL [[1288.091,-29.485,363.868],[0.01057,-0.2894,0.95711,0.00868],conf,extj],Speed001,Zone001,Tool_Mill_Spindle \WObj:=DefaultFrame;
MoveL [[1286.167,-30.065,363.843],[0.00949,-0.28941,0.95712,0.00845],conf,extj],Speed001,Zone001,Tool_Mill_Spindle \WObj:=DefaultFrame;
MoveL [[1284.186,-30.407,363.819],[0.00809,-0.28942,0.95713,0.00845],conf,extj],Speed001,Zone001,Tool_Mill_Spindle \WObj:=DefaultFrame;
MoveL [[1282.197,-30.728,363.807],[0.00638,-0.28944,0.95713,0.00874],conf,extj],Speed001,Zone001,Tool_Mill_Spindle \WObj:=DefaultFrame;
MoveL [[1280.212,-31.045,363.809],[0.00482,-0.28946,0.95713,0.00924],conf,extj],Speed001,Zone001,Tool_Mill_Spindle \WObj:=DefaultFrame;
MoveL [[1278.229,-31.361,363.822],[0.00371,-0.28947,0.95713,0.0098],conf,extj],Speed001,Zone001,Tool_Mill_Spindle \WObj:=DefaultFrame;
MoveL [[1276.241,-31.629,363.842],[0.00301,-0.28948,0.95712,0.0104],conf,extj],Speed001,Zone001,Tool_Mill_Spindle \WObj:=DefaultFrame;
MoveL [[1274.254,-31.879,363.865],[0.00268,-0.28948,0.95712,0.01099],conf,extj],Speed001,Zone001,Tool_Mill_Spindle \WObj:=DefaultFrame;
MoveL [[1272.269,-32.129,363.891],[0.00266,-0.28948,0.95711,0.01153],conf,extj],Speed001,Zone001,Tool_Mill_Spindle \WObj:=DefaultFrame;
MoveL [[1270.286,-32.38,363.917],[0.00285,-0.28948,0.9571,0.01203],conf,extj],Speed001,Zone001,Tool_Mill_Spindle \WObj:=DefaultFrame;
MoveL [[1268.312,-32.677,363.941],[0.00324,-0.28948,0.9571,0.01245],conf,extj],Speed001,Zone001,Tool_Mill_Spindle \WObj:=DefaultFrame;
MoveL [[1266.345,-33.01,363.964],[0.00382,-0.28947,0.95709,0.01277],conf,extj],Speed001,Zone001,Tool_Mill_Spindle \WObj:=DefaultFrame;
MoveL [[1264.378,-33.344,363.981],[0.0045,-0.28946,0.95709,0.01298],conf,extj],Speed001,Zone001,Tool_Mill_Spindle \WObj:=DefaultFrame;
MoveL [[1262.411,-33.678,363.993],[0.00511,-0.28945,0.95709,0.01313],conf,extj],Speed001,Zone001,Tool_Mill_Spindle \WObj:=DefaultFrame;
MoveL [[1260.457,-34.075,364.002],[0.00566,-0.28944,0.95709,0.01322],conf,extj],Speed001,Zone001,Tool_Mill_Spindle \WObj:=DefaultFrame;
MoveL [[1258.522,-34.568,364.009],[0.00614,-0.28944,0.95709,0.01326],conf,extj],Speed001,Zone001,Tool_Mill_Spindle \WObj:=DefaultFrame;
MoveL [[1256.588,-35.062,364.011],[0.00656,-0.28943,0.95708,0.01326],conf,extj],Speed001,Zone001,Tool_Mill_Spindle \WObj:=DefaultFrame;
MoveL [[1254.653,-35.556,364.011],[0.00689,-0.28943,0.95708,0.01324],conf,extj],Speed001,Zone001,Tool_Mill_Spindle \WObj:=DefaultFrame;
MoveL [[1252.73,-36.094,364.009],[0.00713,-0.28942,0.95708,0.0132],conf,extj],Speed001,Zone001,Tool_Mill_Spindle \WObj:=DefaultFrame;
MoveL [[1250.856,-36.788,364.008],[0.00729,-0.28942,0.95708,0.01315],conf,extj],Speed001,Zone001,Tool_Mill_Spindle \WObj:=DefaultFrame;
MoveL [[1248.981,-37.481,364.006],[0.00737,-0.28942,0.95708,0.01309],conf,extj],Speed001,Zone001,Tool_Mill_Spindle \WObj:=DefaultFrame;
MoveL [[1247.106,-38.175,364.004],[0.0074,-0.28942,0.95709,0.01302],conf,extj],Speed001,Zone001,Tool_Mill_Spindle \WObj:=DefaultFrame;
MoveL [[1245.234,-38.878,364.001],[0.00737,-0.28942,0.95709,0.01297],conf,extj],Speed001,Zone001,Tool_Mill_Spindle \WObj:=DefaultFrame;
MoveL [[1243.446,-39.775,364.002],[0.0073,-0.28942,0.95709,0.0129],conf,extj],Speed001,Zone001,Tool_Mill_Spindle \WObj:=DefaultFrame;
MoveL [[1241.657,-40.672,364.004],[0.0072,-0.28942,0.95709,0.01285],conf,extj],Speed001,Zone001,Tool_Mill_Spindle \WObj:=DefaultFrame;
MoveL [[1239.868,-41.569,364.007],[0.00707,-0.28942,0.95709,0.0128],conf,extj],Speed001,Zone001,Tool_Mill_Spindle \WObj:=DefaultFrame;
MoveL [[1238.08,-42.466,364.012],[0.00694,-0.28942,0.95709,0.01275],conf,extj],Speed001,Zone001,Tool_Mill_Spindle \WObj:=DefaultFrame;
MoveL [[1236.387,-43.531,364.02],[0.00682,-0.28943,0.95709,0.0127],conf,extj],Speed001,Zone001,Tool_Mill_Spindle \WObj:=DefaultFrame;
MoveL [[1234.71,-44.622,364.029],[0.00672,-0.28943,0.95709,0.01264],conf,extj],Speed001,Zone001,Tool_Mill_Spindle \WObj:=DefaultFrame;
MoveL [[1233.033,-45.713,364.04],[0.00664,-0.28943,0.95709,0.01259],conf,extj],Speed001,Zone001,Tool_Mill_Spindle \WObj:=DefaultFrame;
MoveL [[1231.356,-46.803,364.051],[0.00658,-0.28943,0.9571,0.01254],conf,extj],Speed001,Zone001,Tool_Mill_Spindle \WObj:=DefaultFrame;
MoveL [[1229.765,-48.012,364.064],[0.00653,-0.28943,0.9571,0.01249],conf,extj],Speed001,Zone001,Tool_Mill_Spindle \WObj:=DefaultFrame;
MoveL [[1228.213,-49.274,364.079],[0.00651,-0.28943,0.9571,0.01243],conf,extj],Speed001,Zone001,Tool_Mill_Spindle \WObj:=DefaultFrame;
MoveL [[1226.661,-50.536,364.095],[0.0065,-0.28943,0.9571,0.01237],conf,extj],Speed001,Zone001,Tool_Mill_Spindle \WObj:=DefaultFrame;
MoveL [[1225.11,-51.797,364.11],[0.00651,-0.28943,0.9571,0.01232],conf,extj],Speed001,Zone001,Tool_Mill_Spindle \WObj:=DefaultFrame;
MoveL [[1223.619,-53.128,364.127],[0.00654,-0.28943,0.9571,0.01226],conf,extj],Speed001,Zone001,Tool_Mill_Spindle \WObj:=DefaultFrame;
MoveL [[1222.187,-54.523,364.146],[0.00656,-0.28943,0.9571,0.0122],conf,extj],Speed001,Zone001,Tool_Mill_Spindle \WObj:=DefaultFrame;
MoveL [[1220.754,-55.918,364.164],[0.00658,-0.28943,0.9571,0.01215],conf,extj],Speed001,Zone001,Tool_Mill_Spindle \WObj:=DefaultFrame;
MoveL [[1219.321,-57.313,364.183],[0.00659,-0.28943,0.9571,0.01211],conf,extj],Speed001,Zone001,Tool_Mill_Spindle \WObj:=DefaultFrame;
MoveL [[1217.924,-58.742,364.202],[0.00659,-0.28943,0.9571,0.01207],conf,extj],Speed001,Zone001,Tool_Mill_Spindle \WObj:=DefaultFrame;
MoveL [[1216.594,-60.236,364.223],[0.00658,-0.28943,0.9571,0.01203],conf,extj],Speed001,Zone001,Tool_Mill_Spindle \WObj:=DefaultFrame;
MoveL [[1215.264,-61.73,364.244],[0.00656,-0.28943,0.9571,0.012],conf,extj],Speed001,Zone001,Tool_Mill_Spindle \WObj:=DefaultFrame;
MoveL [[1213.934,-63.223,364.266],[0.00652,-0.28943,0.9571,0.01198],conf,extj],Speed001,Zone001,Tool_Mill_Spindle \WObj:=DefaultFrame;
MoveL [[1212.615,-64.727,364.288],[0.00647,-0.28943,0.9571,0.01195],conf,extj],Speed001,Zone001,Tool_Mill_Spindle \WObj:=DefaultFrame;
MoveL [[1211.352,-66.278,364.311],[0.00642,-0.28943,0.9571,0.01194],conf,extj],Speed001,Zone001,Tool_Mill_Spindle \WObj:=DefaultFrame;
MoveL [[1210.089,-67.829,364.335],[0.00636,-0.28943,0.9571,0.01193],conf,extj],Speed001,Zone001,Tool_Mill_Spindle \WObj:=DefaultFrame;
MoveL [[1208.827,-69.38,364.36],[0.00632,-0.28943,0.9571,0.01195],conf,extj],Speed001,Zone001,Tool_Mill_Spindle \WObj:=DefaultFrame;
MoveL [[1207.564,-70.931,364.384],[0.00631,-0.28943,0.9571,0.01198],conf,extj],Speed001,Zone001,Tool_Mill_Spindle \WObj:=DefaultFrame;
MoveL [[1206.327,-72.502,364.409],[0.00635,-0.28943,0.9571,0.01205],conf,extj],Speed001,Zone001,Tool_Mill_Spindle \WObj:=DefaultFrame;
MoveL [[1205.091,-74.072,364.433],[0.00646,-0.28943,0.9571,0.01214],conf,extj],Speed001,Zone001,Tool_Mill_Spindle \WObj:=DefaultFrame;
MoveL [[1203.855,-75.642,364.455],[0.00665,-0.28943,0.9571,0.01228],conf,extj],Speed001,Zone001,Tool_Mill_Spindle \WObj:=DefaultFrame;
MoveL [[1202.62,-77.212,364.475],[0.00693,-0.28942,0.9571,0.01246],conf,extj],Speed001,Zone001,Tool_Mill_Spindle \WObj:=DefaultFrame;
MoveL [[1201.364,-78.763,364.491],[0.00729,-0.28942,0.95709,0.01268],conf,extj],Speed001,Zone001,Tool_Mill_Spindle \WObj:=DefaultFrame;
MoveL [[1200.102,-80.31,364.504],[0.00773,-0.28941,0.95709,0.01294],conf,extj],Speed001,Zone001,Tool_Mill_Spindle \WObj:=DefaultFrame;
MoveL [[1198.841,-81.857,364.513],[0.00824,-0.28941,0.95708,0.01324],conf,extj],Speed001,Zone001,Tool_Mill_Spindle \WObj:=DefaultFrame;
MoveL [[1197.581,-83.403,364.516],[0.00878,-0.2894,0.95707,0.01356],conf,extj],Speed001,Zone001,Tool_Mill_Spindle \WObj:=DefaultFrame;
MoveL [[1196.266,-84.902,364.514],[0.00932,-0.28939,0.95706,0.0139],conf,extj],Speed001,Zone001,Tool_Mill_Spindle \WObj:=DefaultFrame;
MoveL [[1194.919,-86.373,364.506],[0.00981,-0.28939,0.95706,0.01423],conf,extj],Speed001,Zone001,Tool_Mill_Spindle \WObj:=DefaultFrame;
MoveL [[1193.571,-87.845,364.494],[0.0102,-0.28938,0.95705,0.01453],conf,extj],Speed001,Zone001,Tool_Mill_Spindle \WObj:=DefaultFrame;
MoveL [[1192.222,-89.317,364.478],[0.01044,-0.28938,0.95704,0.01479],conf,extj],Speed001,Zone001,Tool_Mill_Spindle \WObj:=DefaultFrame;
MoveL [[1190.821,-90.74,364.46],[0.01047,-0.28938,0.95704,0.015],conf,extj],Speed001,Zone001,Tool_Mill_Spindle \WObj:=DefaultFrame;
MoveL [[1189.357,-92.104,364.44],[0.01027,-0.28938,0.95704,0.01511],conf,extj],Speed001,Zone001,Tool_Mill_Spindle \WObj:=DefaultFrame;
MoveL [[1187.891,-93.469,364.423],[0.00986,-0.28939,0.95704,0.01511],conf,extj],Speed001,Zone001,Tool_Mill_Spindle \WObj:=DefaultFrame;
MoveL [[1186.425,-94.836,364.409],[0.00927,-0.2894,0.95705,0.01497],conf,extj],Speed001,Zone001,Tool_Mill_Spindle \WObj:=DefaultFrame;
MoveL [[1184.939,-96.184,364.401],[0.00851,-0.28941,0.95705,0.01469],conf,extj],Speed001,Zone001,Tool_Mill_Spindle \WObj:=DefaultFrame;
MoveL [[1183.409,-97.481,364.399],[0.00765,-0.28942,0.95706,0.0143],conf,extj],Speed001,Zone001,Tool_Mill_Spindle \WObj:=DefaultFrame;
MoveL [[1181.89,-98.77,364.404],[0.00674,-0.28944,0.95707,0.01385],conf,extj],Speed001,Zone001,Tool_Mill_Spindle \WObj:=DefaultFrame;
MoveL [[1180.439,-100.008,364.417],[0.00587,-0.28945,0.95708,0.01338],conf,extj],Speed001,Zone001,Tool_Mill_Spindle \WObj:=DefaultFrame;
MoveL [[1178.978,-101.252,364.438],[0.00504,-0.28946,0.95709,0.01292],conf,extj],Speed001,Zone001,Tool_Mill_Spindle \WObj:=DefaultFrame;
MoveL [[1177.56,-102.538,364.466],[0.00431,-0.28947,0.9571,0.0125],conf,extj],Speed001,Zone001,Tool_Mill_Spindle \WObj:=DefaultFrame;
MoveL [[1176.221,-103.744,364.497],[0.00376,-0.28948,0.9571,0.01215],conf,extj],Speed001,Zone001,Tool_Mill_Spindle \WObj:=DefaultFrame;
MoveL [[1174.78,-105.048,364.536],[0.00337,-0.28948,0.9571,0.01186],conf,extj],Speed001,Zone001,Tool_Mill_Spindle \WObj:=DefaultFrame;
MoveL [[1173.304,-106.391,364.578],[0.00322,-0.28948,0.95711,0.01165],conf,extj],Speed001,Zone001,Tool_Mill_Spindle \WObj:=DefaultFrame;
MoveL [[1171.927,-107.836,364.623],[0.00326,-0.28948,0.95711,0.0116],conf,extj],Speed001,Zone001,Tool_Mill_Spindle \WObj:=DefaultFrame;
MoveL [[1170.608,-109.336,364.667],[0.00342,-0.28948,0.95711,0.01172],conf,extj],Speed001,Zone001,Tool_Mill_Spindle \WObj:=DefaultFrame;
MoveL [[1169.29,-110.834,364.71],[0.00372,-0.28948,0.9571,0.01199],conf,extj],Speed001,Zone001,Tool_Mill_Spindle \WObj:=DefaultFrame;
MoveL [[1167.973,-112.331,364.748],[0.00414,-0.28947,0.9571,0.0124],conf,extj],Speed001,Zone001,Tool_Mill_Spindle \WObj:=DefaultFrame;
MoveL [[1166.781,-113.92,364.782],[0.00465,-0.28946,0.95709,0.01298],conf,extj],Speed001,Zone001,Tool_Mill_Spindle \WObj:=DefaultFrame;
MoveL [[1165.734,-115.614,364.811],[0.00527,-0.28946,0.95708,0.01372],conf,extj],Speed001,Zone001,Tool_Mill_Spindle \WObj:=DefaultFrame;
MoveL [[1164.687,-117.308,364.832],[0.00599,-0.28944,0.95706,0.01458],conf,extj],Speed001,Zone001,Tool_Mill_Spindle \WObj:=DefaultFrame;
MoveL [[1163.64,-119.001,364.843],[0.00681,-0.28943,0.95705,0.01552],conf,extj],Speed001,Zone001,Tool_Mill_Spindle \WObj:=DefaultFrame;
MoveL [[1162.703,-120.747,364.844],[0.00768,-0.28942,0.95703,0.01652],conf,extj],Speed001,Zone001,Tool_Mill_Spindle \WObj:=DefaultFrame;
MoveL [[1162.028,-122.618,364.836],[0.00857,-0.2894,0.95701,0.01759],conf,extj],Speed001,Zone001,Tool_Mill_Spindle \WObj:=DefaultFrame;
MoveL [[1161.354,-124.489,364.817],[0.0095,-0.28939,0.95698,0.0187],conf,extj],Speed001,Zone001,Tool_Mill_Spindle \WObj:=DefaultFrame;
MoveL [[1160.679,-126.36,364.785],[0.01046,-0.28937,0.95695,0.01984],conf,extj],Speed001,Zone001,Tool_Mill_Spindle \WObj:=DefaultFrame;
MoveL [[1160.058,-128.244,364.743],[0.01142,-0.28935,0.95692,0.02101],conf,extj],Speed001,Zone001,Tool_Mill_Spindle \WObj:=DefaultFrame;
MoveL [[1159.822,-130.218,364.692],[0.01224,-0.28934,0.95689,0.02219],conf,extj],Speed001,Zone001,Tool_Mill_Spindle \WObj:=DefaultFrame;
MoveL [[1159.586,-132.193,364.629],[0.01302,-0.28933,0.95686,0.02333],conf,extj],Speed001,Zone001,Tool_Mill_Spindle \WObj:=DefaultFrame;
MoveL [[1159.35,-134.169,364.557],[0.01375,-0.28931,0.95682,0.02443],conf,extj],Speed001,Zone001,Tool_Mill_Spindle \WObj:=DefaultFrame;
MoveL [[1159.113,-136.144,364.474],[0.01441,-0.2893,0.95679,0.02551],conf,extj],Speed001,Zone001,Tool_Mill_Spindle \WObj:=DefaultFrame;
MoveL [[1159.314,-138.121,364.39],[0.01478,-0.28929,0.95676,0.02659],conf,extj],Speed001,Zone001,Tool_Mill_Spindle \WObj:=DefaultFrame;
MoveL [[1159.538,-140.097,364.297],[0.01509,-0.28929,0.95672,0.02777],conf,extj],Speed001,Zone001,Tool_Mill_Spindle \WObj:=DefaultFrame;
MoveL [[1159.761,-142.07,364.193],[0.01541,-0.28929,0.95667,0.02927],conf,extj],Speed001,Zone001,Tool_Mill_Spindle \WObj:=DefaultFrame;
MoveL [[1159.982,-144.038,364.077],[0.01577,-0.28929,0.95661,0.03107],conf,extj],Speed001,Zone001,Tool_Mill_Spindle \WObj:=DefaultFrame;
MoveL [[1160.559,-145.921,363.957],[0.01604,-0.28929,0.95653,0.03316],conf,extj],Speed001,Zone001,Tool_Mill_Spindle \WObj:=DefaultFrame;
MoveL [[1161.251,-147.776,363.823],[0.01634,-0.28929,0.95644,0.0355],conf,extj],Speed001,Zone001,Tool_Mill_Spindle \WObj:=DefaultFrame;
MoveL [[1161.47,-152.426,395.545],[0.01956,-0.28917,0.95616,0.04204],conf,extj],Speed001,Zone001,Tool_Mill_Spindle \WObj:=DefaultFrame;
MoveL [[1165.437,-127.063,396.811],[0.00359,-0.29234,0.95629,0.00609],conf,extj],Speed001,Zone001,Tool_Mill_Spindle \WObj:=DefaultFrame;
MoveL [[1165.543,-126.624,364.814],[0.00872,-0.2922,0.95611,0.01973],conf,extj],Speed001,Zone001,Tool_Mill_Spindle \WObj:=DefaultFrame;
MoveL [[1166.148,-124.738,364.837],[0.00786,-0.29221,0.95614,0.01855],conf,extj],Speed001,Zone001,Tool_Mill_Spindle \WObj:=DefaultFrame;
MoveL [[1167.127,-123.007,364.847],[0.00694,-0.29223,0.95616,0.01752],conf,extj],Speed001,Zone001,Tool_Mill_Spindle \WObj:=DefaultFrame;
MoveL [[1168.106,-121.275,364.847],[0.00606,-0.29224,0.95618,0.01654],conf,extj],Speed001,Zone001,Tool_Mill_Spindle \WObj:=DefaultFrame;
MoveL [[1169.086,-119.542,364.836],[0.00522,-0.29226,0.9562,0.01563],conf,extj],Speed001,Zone001,Tool_Mill_Spindle \WObj:=DefaultFrame;
MoveL [[1170.141,-117.863,364.816],[0.00442,-0.29227,0.95621,0.01484],conf,extj],Speed001,Zone001,Tool_Mill_Spindle \WObj:=DefaultFrame;
MoveL [[1171.474,-116.384,364.788],[0.00363,-0.29228,0.95622,0.01428],conf,extj],Speed001,Zone001,Tool_Mill_Spindle \WObj:=DefaultFrame;
MoveL [[1172.807,-114.903,364.753],[0.00293,-0.29229,0.95622,0.01387],conf,extj],Speed001,Zone001,Tool_Mill_Spindle \WObj:=DefaultFrame;
MoveL [[1174.141,-113.421,364.712],[0.00238,-0.2923,0.95623,0.01361],conf,extj],Speed001,Zone001,Tool_Mill_Spindle \WObj:=DefaultFrame;
MoveL [[1175.534,-111.999,364.668],[0.0021,-0.2923,0.95623,0.01349],conf,extj],Speed001,Zone001,Tool_Mill_Spindle \WObj:=DefaultFrame;
MoveL [[1177.097,-110.752,364.623],[0.00208,-0.2923,0.95623,0.01356],conf,extj],Speed001,Zone001,Tool_Mill_Spindle \WObj:=DefaultFrame;
MoveL [[1178.66,-109.505,364.58],[0.00237,-0.2923,0.95623,0.01372],conf,extj],Speed001,Zone001,Tool_Mill_Spindle \WObj:=DefaultFrame;
MoveL [[1180.193,-108.292,364.541],[0.00289,-0.29229,0.95622,0.01395],conf,extj],Speed001,Zone001,Tool_Mill_Spindle \WObj:=DefaultFrame;
MoveL [[1181.694,-107.152,364.509],[0.0036,-0.29228,0.95622,0.01422],conf,extj],Speed001,Zone001,Tool_Mill_Spindle \WObj:=DefaultFrame;
MoveL [[1183.266,-106.101,364.483],[0.00447,-0.29227,0.95622,0.01454],conf,extj],Speed001,Zone001,Tool_Mill_Spindle \WObj:=DefaultFrame;
MoveL [[1184.854,-105.018,364.465],[0.00551,-0.29225,0.95621,0.01484],conf,extj],Speed001,Zone001,Tool_Mill_Spindle \WObj:=DefaultFrame;
MoveL [[1186.419,-103.949,364.455],[0.00664,-0.29223,0.9562,0.01511],conf,extj],Speed001,Zone001,Tool_Mill_Spindle \WObj:=DefaultFrame;
MoveL [[1188.06,-102.832,364.454],[0.00787,-0.29221,0.9562,0.01532],conf,extj],Speed001,Zone001,Tool_Mill_Spindle \WObj:=DefaultFrame;
MoveL [[1189.681,-101.642,364.463],[0.00909,-0.29219,0.95619,0.01543],conf,extj],Speed001,Zone001,Tool_Mill_Spindle \WObj:=DefaultFrame;
MoveL [[1191.301,-100.456,364.48],[0.01016,-0.29217,0.95619,0.01544],conf,extj],Speed001,Zone001,Tool_Mill_Spindle \WObj:=DefaultFrame;
MoveL [[1192.919,-99.269,364.504],[0.01092,-0.29216,0.95618,0.01537],conf,extj],Speed001,Zone001,Tool_Mill_Spindle \WObj:=DefaultFrame;
MoveL [[1194.516,-98.064,364.533],[0.01137,-0.29215,0.95618,0.01522],conf,extj],Speed001,Zone001,Tool_Mill_Spindle \WObj:=DefaultFrame;
MoveL [[1195.964,-96.687,364.559],[0.0115,-0.29215,0.95619,0.01499],conf,extj],Speed001,Zone001,Tool_Mill_Spindle \WObj:=DefaultFrame;
MoveL [[1197.411,-95.31,364.585],[0.01136,-0.29215,0.95619,0.01468],conf,extj],Speed001,Zone001,Tool_Mill_Spindle \WObj:=DefaultFrame;
MoveL [[1198.857,-93.934,364.608],[0.01101,-0.29215,0.9562,0.01432],conf,extj],Speed001,Zone001,Tool_Mill_Spindle \WObj:=DefaultFrame;
MoveL [[1200.278,-92.537,364.626],[0.0105,-0.29216,0.95621,0.01396],conf,extj],Speed001,Zone001,Tool_Mill_Spindle \WObj:=DefaultFrame;
MoveL [[1201.563,-91.012,364.635],[0.00989,-0.29217,0.95622,0.01361],conf,extj],Speed001,Zone001,Tool_Mill_Spindle \WObj:=DefaultFrame;
MoveL [[1202.848,-89.487,364.639],[0.00925,-0.29217,0.95623,0.01328],conf,extj],Speed001,Zone001,Tool_Mill_Spindle \WObj:=DefaultFrame;
MoveL [[1204.133,-87.962,364.637],[0.00862,-0.29218,0.95624,0.01299],conf,extj],Speed001,Zone001,Tool_Mill_Spindle \WObj:=DefaultFrame;
MoveL [[1205.403,-86.424,364.63],[0.00803,-0.29219,0.95624,0.01274],conf,extj],Speed001,Zone001,Tool_Mill_Spindle \WObj:=DefaultFrame;
MoveL [[1206.603,-84.83,364.617],[0.00751,-0.2922,0.95625,0.01254],conf,extj],Speed001,Zone001,Tool_Mill_Spindle \WObj:=DefaultFrame;
MoveL [[1207.804,-83.235,364.6],[0.00708,-0.2922,0.95625,0.01238],conf,extj],Speed001,Zone001,Tool_Mill_Spindle \WObj:=DefaultFrame;
MoveL [[1209.006,-81.64,364.58],[0.00677,-0.29221,0.95625,0.01226],conf,extj],Speed001,Zone001,Tool_Mill_Spindle \WObj:=DefaultFrame;
MoveL [[1210.204,-80.041,364.557],[0.00655,-0.29221,0.95625,0.01218],conf,extj],Speed001,Zone001,Tool_Mill_Spindle \WObj:=DefaultFrame;
MoveL [[1211.386,-78.43,364.533],[0.00642,-0.29221,0.95626,0.01212],conf,extj],Speed001,Zone001,Tool_Mill_Spindle \WObj:=DefaultFrame;
MoveL [[1212.568,-76.818,364.508],[0.00635,-0.29221,0.95626,0.01209],conf,extj],Speed001,Zone001,Tool_Mill_Spindle \WObj:=DefaultFrame;
MoveL [[1213.751,-75.205,364.483],[0.00633,-0.29221,0.95626,0.01208],conf,extj],Speed001,Zone001,Tool_Mill_Spindle \WObj:=DefaultFrame;
MoveL [[1214.942,-73.599,364.458],[0.00634,-0.29221,0.95626,0.01208],conf,extj],Speed001,Zone001,Tool_Mill_Spindle \WObj:=DefaultFrame;
MoveL [[1216.159,-72.012,364.434],[0.00637,-0.29221,0.95626,0.01208],conf,extj],Speed001,Zone001,Tool_Mill_Spindle \WObj:=DefaultFrame;
MoveL [[1217.376,-70.424,364.409],[0.00641,-0.29221,0.95626,0.01209],conf,extj],Speed001,Zone001,Tool_Mill_Spindle \WObj:=DefaultFrame;
MoveL [[1218.591,-68.838,364.385],[0.00644,-0.29221,0.95626,0.01211],conf,extj],Speed001,Zone001,Tool_Mill_Spindle \WObj:=DefaultFrame;
MoveL [[1219.832,-67.271,364.362],[0.00647,-0.29221,0.95626,0.01212],conf,extj],Speed001,Zone001,Tool_Mill_Spindle \WObj:=DefaultFrame;
MoveL [[1221.131,-65.753,364.34],[0.00649,-0.29221,0.95626,0.01213],conf,extj],Speed001,Zone001,Tool_Mill_Spindle \WObj:=DefaultFrame;
MoveL [[1222.431,-64.234,364.318],[0.00649,-0.29221,0.95626,0.01214],conf,extj],Speed001,Zone001,Tool_Mill_Spindle \WObj:=DefaultFrame;
MoveL [[1223.731,-62.714,364.296],[0.00648,-0.29221,0.95626,0.01215],conf,extj],Speed001,Zone001,Tool_Mill_Spindle \WObj:=DefaultFrame;
MoveL [[1225.071,-61.232,364.275],[0.00646,-0.29221,0.95626,0.01215],conf,extj],Speed001,Zone001,Tool_Mill_Spindle \WObj:=DefaultFrame;
MoveL [[1226.494,-59.828,364.255],[0.00645,-0.29221,0.95626,0.01217],conf,extj],Speed001,Zone001,Tool_Mill_Spindle \WObj:=DefaultFrame;
MoveL [[1227.918,-58.423,364.235],[0.00644,-0.29221,0.95626,0.01218],conf,extj],Speed001,Zone001,Tool_Mill_Spindle \WObj:=DefaultFrame;
MoveL [[1229.342,-57.018,364.216],[0.00644,-0.29221,0.95625,0.01221],conf,extj],Speed001,Zone001,Tool_Mill_Spindle \WObj:=DefaultFrame;
MoveL [[1230.815,-55.67,364.197],[0.00646,-0.29221,0.95625,0.01223],conf,extj],Speed001,Zone001,Tool_Mill_Spindle \WObj:=DefaultFrame;
MoveL [[1232.378,-54.422,364.181],[0.00649,-0.29221,0.95625,0.01227],conf,extj],Speed001,Zone001,Tool_Mill_Spindle \WObj:=DefaultFrame;
MoveL [[1233.941,-53.173,364.166],[0.00654,-0.29221,0.95625,0.0123],conf,extj],Speed001,Zone001,Tool_Mill_Spindle \WObj:=DefaultFrame;
MoveL [[1235.504,-51.925,364.15],[0.00661,-0.29221,0.95625,0.01234],conf,extj],Speed001,Zone001,Tool_Mill_Spindle \WObj:=DefaultFrame;
MoveL [[1237.123,-50.757,364.138],[0.00669,-0.29221,0.95625,0.01238],conf,extj],Speed001,Zone001,Tool_Mill_Spindle \WObj:=DefaultFrame;
MoveL [[1238.828,-49.709,364.128],[0.00679,-0.29221,0.95625,0.01243],conf,extj],Speed001,Zone001,Tool_Mill_Spindle \WObj:=DefaultFrame;
MoveL [[1240.532,-48.661,364.119],[0.00691,-0.2922,0.95625,0.01247],conf,extj],Speed001,Zone001,Tool_Mill_Spindle \WObj:=DefaultFrame;
MoveL [[1242.237,-47.613,364.111],[0.00702,-0.2922,0.95625,0.01252],conf,extj],Speed001,Zone001,Tool_Mill_Spindle \WObj:=DefaultFrame;
MoveL [[1243.994,-46.665,364.106],[0.00712,-0.2922,0.95625,0.01257],conf,extj],Speed001,Zone001,Tool_Mill_Spindle \WObj:=DefaultFrame;
MoveL [[1245.819,-45.846,364.104],[0.00719,-0.2922,0.95625,0.01264],conf,extj],Speed001,Zone001,Tool_Mill_Spindle \WObj:=DefaultFrame;
MoveL [[1247.644,-45.026,364.103],[0.00723,-0.2922,0.95625,0.0127],conf,extj],Speed001,Zone001,Tool_Mill_Spindle \WObj:=DefaultFrame;
MoveL [[1249.468,-44.206,364.101],[0.00723,-0.2922,0.95624,0.01277],conf,extj],Speed001,Zone001,Tool_Mill_Spindle \WObj:=DefaultFrame;
MoveL [[1251.335,-43.502,364.102],[0.00719,-0.2922,0.95624,0.01284],conf,extj],Speed001,Zone001,Tool_Mill_Spindle \WObj:=DefaultFrame;
MoveL [[1253.248,-42.923,364.104],[0.0071,-0.2922,0.95624,0.01291],conf,extj],Speed001,Zone001,Tool_Mill_Spindle \WObj:=DefaultFrame;
MoveL [[1255.161,-42.344,364.105],[0.00695,-0.2922,0.95624,0.01296],conf,extj],Speed001,Zone001,Tool_Mill_Spindle \WObj:=DefaultFrame;
MoveL [[1257.072,-41.767,364.105],[0.00674,-0.29221,0.95624,0.013],conf,extj],Speed001,Zone001,Tool_Mill_Spindle \WObj:=DefaultFrame;
MoveL [[1259.01,-41.304,364.104],[0.00648,-0.29221,0.95624,0.01301],conf,extj],Speed001,Zone001,Tool_Mill_Spindle \WObj:=DefaultFrame;
MoveL [[1260.974,-40.95,364.103],[0.0062,-0.29222,0.95624,0.01297],conf,extj],Speed001,Zone001,Tool_Mill_Spindle \WObj:=DefaultFrame;
MoveL [[1262.94,-40.596,364.1],[0.00588,-0.29222,0.95625,0.01288],conf,extj],Speed001,Zone001,Tool_Mill_Spindle \WObj:=DefaultFrame;
MoveL [[1264.905,-40.244,364.094],[0.00552,-0.29222,0.95625,0.01273],conf,extj],Speed001,Zone001,Tool_Mill_Spindle \WObj:=DefaultFrame;
MoveL [[1266.884,-39.992,364.087],[0.00515,-0.29223,0.95625,0.01249],conf,extj],Speed001,Zone001,Tool_Mill_Spindle \WObj:=DefaultFrame;
MoveL [[1268.876,-39.824,364.08],[0.00486,-0.29223,0.95626,0.01217],conf,extj],Speed001,Zone001,Tool_Mill_Spindle \WObj:=DefaultFrame;
MoveL [[1270.868,-39.655,364.071],[0.00466,-0.29223,0.95626,0.01177],conf,extj],Speed001,Zone001,Tool_Mill_Spindle \WObj:=DefaultFrame;
MoveL [[1272.86,-39.487,364.062],[0.00457,-0.29224,0.95627,0.01132],conf,extj],Speed001,Zone001,Tool_Mill_Spindle \WObj:=DefaultFrame;
MoveL [[1274.858,-39.367,364.054],[0.00461,-0.29223,0.95627,0.01083],conf,extj],Speed001,Zone001,Tool_Mill_Spindle \WObj:=DefaultFrame;
MoveL [[1276.858,-39.279,364.049],[0.00481,-0.29223,0.95628,0.01034],conf,extj],Speed001,Zone001,Tool_Mill_Spindle \WObj:=DefaultFrame;
MoveL [[1278.86,-39.191,364.048],[0.0052,-0.29223,0.95628,0.00989],conf,extj],Speed001,Zone001,Tool_Mill_Spindle \WObj:=DefaultFrame;
MoveL [[1280.863,-39.102,364.051],[0.00579,-0.29222,0.95629,0.00951],conf,extj],Speed001,Zone001,Tool_Mill_Spindle \WObj:=DefaultFrame;
MoveL [[1282.86,-38.949,364.058],[0.00659,-0.29221,0.95629,0.00925],conf,extj],Speed001,Zone001,Tool_Mill_Spindle \WObj:=DefaultFrame;
MoveL [[1284.856,-38.758,364.07],[0.00738,-0.2922,0.95628,0.00919],conf,extj],Speed001,Zone001,Tool_Mill_Spindle \WObj:=DefaultFrame;
MoveL [[1286.85,-38.565,364.088],[0.00805,-0.29219,0.95628,0.00933],conf,extj],Speed001,Zone001,Tool_Mill_Spindle \WObj:=DefaultFrame;
MoveL [[1288.844,-38.371,364.111],[0.00857,-0.29219,0.95627,0.00962],conf,extj],Speed001,Zone001,Tool_Mill_Spindle \WObj:=DefaultFrame;
MoveL [[1290.781,-37.9,364.128],[0.00896,-0.29219,0.95627,0.00997],conf,extj],Speed001,Zone001,Tool_Mill_Spindle \WObj:=DefaultFrame;
MoveL [[1292.687,-37.288,364.145],[0.00924,-0.29219,0.95626,0.01036],conf,extj],Speed001,Zone001,Tool_Mill_Spindle \WObj:=DefaultFrame;
MoveL [[1294.59,-36.677,364.164],[0.00942,-0.29219,0.95625,0.01078],conf,extj],Speed001,Zone001,Tool_Mill_Spindle \WObj:=DefaultFrame;
MoveL [[1296.494,-36.065,364.183],[0.00948,-0.29219,0.95625,0.0112],conf,extj],Speed001,Zone001,Tool_Mill_Spindle \WObj:=DefaultFrame;
MoveL [[1298.229,-35.1,364.195],[0.00949,-0.29219,0.95624,0.01157],conf,extj],Speed001,Zone001,Tool_Mill_Spindle \WObj:=DefaultFrame;
MoveL [[1299.893,-33.992,364.203],[0.00938,-0.29219,0.95624,0.01193],conf,extj],Speed001,Zone001,Tool_Mill_Spindle \WObj:=DefaultFrame;
MoveL [[1301.557,-32.883,364.211],[0.00921,-0.2922,0.95624,0.01225],conf,extj],Speed001,Zone001,Tool_Mill_Spindle \WObj:=DefaultFrame;
MoveL [[1303.221,-31.776,364.218],[0.00901,-0.2922,0.95623,0.01253],conf,extj],Speed001,Zone001,Tool_Mill_Spindle \WObj:=DefaultFrame;
MoveL [[1304.801,-30.554,364.221],[0.0088,-0.29221,0.95623,0.01276],conf,extj],Speed001,Zone001,Tool_Mill_Spindle \WObj:=DefaultFrame;
MoveL [[1306.354,-29.295,364.223],[0.00859,-0.29221,0.95623,0.01296],conf,extj],Speed001,Zone001,Tool_Mill_Spindle \WObj:=DefaultFrame;
MoveL [[1307.906,-28.036,364.224],[0.00836,-0.29221,0.95623,0.01312],conf,extj],Speed001,Zone001,Tool_Mill_Spindle \WObj:=DefaultFrame;
MoveL [[1309.459,-26.778,364.224],[0.00814,-0.29222,0.95623,0.01325],conf,extj],Speed001,Zone001,Tool_Mill_Spindle \WObj:=DefaultFrame;
MoveL [[1311.098,-25.638,364.224],[0.0079,-0.29222,0.95622,0.01335],conf,extj],Speed001,Zone001,Tool_Mill_Spindle \WObj:=DefaultFrame;
MoveL [[1312.761,-24.53,364.223],[0.0077,-0.29223,0.95622,0.01341],conf,extj],Speed001,Zone001,Tool_Mill_Spindle \WObj:=DefaultFrame;
MoveL [[1314.425,-23.423,364.221],[0.00753,-0.29223,0.95622,0.01345],conf,extj],Speed001,Zone001,Tool_Mill_Spindle \WObj:=DefaultFrame;
MoveL [[1316.089,-22.316,364.218],[0.00743,-0.29223,0.95622,0.01346],conf,extj],Speed001,Zone001,Tool_Mill_Spindle \WObj:=DefaultFrame;
MoveL [[1317.898,-21.475,364.219],[0.00737,-0.29223,0.95623,0.01344],conf,extj],Speed001,Zone001,Tool_Mill_Spindle \WObj:=DefaultFrame;
MoveL [[1319.737,-20.689,364.22],[0.00734,-0.29223,0.95623,0.01342],conf,extj],Speed001,Zone001,Tool_Mill_Spindle \WObj:=DefaultFrame;
MoveL [[1321.575,-19.902,364.22],[0.00733,-0.29223,0.95623,0.01339],conf,extj],Speed001,Zone001,Tool_Mill_Spindle \WObj:=DefaultFrame;
MoveL [[1323.414,-19.116,364.221],[0.00735,-0.29223,0.95623,0.01336],conf,extj],Speed001,Zone001,Tool_Mill_Spindle \WObj:=DefaultFrame;
MoveL [[1325.367,-18.709,364.227],[0.00742,-0.29223,0.95623,0.01331],conf,extj],Speed001,Zone001,Tool_Mill_Spindle \WObj:=DefaultFrame;
MoveL [[1327.336,-18.358,364.234],[0.00749,-0.29223,0.95623,0.01326],conf,extj],Speed001,Zone001,Tool_Mill_Spindle \WObj:=DefaultFrame;
MoveL [[1329.306,-18.006,364.243],[0.00757,-0.29223,0.95623,0.01322],conf,extj],Speed001,Zone001,Tool_Mill_Spindle \WObj:=DefaultFrame;
MoveL [[1331.275,-17.655,364.251],[0.00765,-0.29223,0.95623,0.01319],conf,extj],Speed001,Zone001,Tool_Mill_Spindle \WObj:=DefaultFrame;
MoveL [[1333.266,-17.777,364.267],[0.00774,-0.29222,0.95623,0.01314],conf,extj],Speed001,Zone001,Tool_Mill_Spindle \WObj:=DefaultFrame;
MoveL [[1335.256,-17.94,364.284],[0.00783,-0.29222,0.95623,0.0131],conf,extj],Speed001,Zone001,Tool_Mill_Spindle \WObj:=DefaultFrame;
MoveL [[1337.249,-18.103,364.301],[0.00791,-0.29222,0.95623,0.01306],conf,extj],Speed001,Zone001,Tool_Mill_Spindle \WObj:=DefaultFrame;
MoveL [[1339.242,-18.266,364.32],[0.008,-0.29222,0.95623,0.01302],conf,extj],Speed001,Zone001,Tool_Mill_Spindle \WObj:=DefaultFrame;
MoveL [[1341.12,-18.946,364.344],[0.00809,-0.29222,0.95623,0.01298],conf,extj],Speed001,Zone001,Tool_Mill_Spindle \WObj:=DefaultFrame;
MoveL [[1342.992,-19.643,364.37],[0.00817,-0.29222,0.95623,0.01295],conf,extj],Speed001,Zone001,Tool_Mill_Spindle \WObj:=DefaultFrame;
MoveL [[1344.866,-20.341,364.396],[0.00826,-0.29222,0.95623,0.01292],conf,extj],Speed001,Zone001,Tool_Mill_Spindle \WObj:=DefaultFrame;
MoveL [[1346.736,-21.045,364.423],[0.00834,-0.29221,0.95623,0.01289],conf,extj],Speed001,Zone001,Tool_Mill_Spindle \WObj:=DefaultFrame;
MoveL [[1348.345,-22.233,364.454],[0.0084,-0.29221,0.95623,0.01287],conf,extj],Speed001,Zone001,Tool_Mill_Spindle \WObj:=DefaultFrame;
MoveL [[1349.953,-23.421,364.485],[0.00846,-0.29221,0.95623,0.01285],conf,extj],Speed001,Zone001,Tool_Mill_Spindle \WObj:=DefaultFrame;
MoveL [[1351.562,-24.609,364.517],[0.00852,-0.29221,0.95623,0.01283],conf,extj],Speed001,Zone001,Tool_Mill_Spindle \WObj:=DefaultFrame;
MoveL [[1353.145,-25.824,364.549],[0.00857,-0.29221,0.95623,0.0128],conf,extj],Speed001,Zone001,Tool_Mill_Spindle \WObj:=DefaultFrame;
MoveL [[1354.351,-27.419,364.583],[0.00861,-0.29221,0.95623,0.01276],conf,extj],Speed001,Zone001,Tool_Mill_Spindle \WObj:=DefaultFrame;
MoveL [[1355.556,-29.015,364.616],[0.00864,-0.29221,0.95623,0.01271],conf,extj],Speed001,Zone001,Tool_Mill_Spindle \WObj:=DefaultFrame;
MoveL [[1356.762,-30.61,364.651],[0.00868,-0.29221,0.95623,0.01266],conf,extj],Speed001,Zone001,Tool_Mill_Spindle \WObj:=DefaultFrame;
MoveL [[1357.913,-32.237,364.685],[0.00871,-0.29221,0.95623,0.0126],conf,extj],Speed001,Zone001,Tool_Mill_Spindle \WObj:=DefaultFrame;
MoveL [[1358.631,-34.104,364.719],[0.00872,-0.29221,0.95623,0.01255],conf,extj],Speed001,Zone001,Tool_Mill_Spindle \WObj:=DefaultFrame;
MoveL [[1359.349,-35.97,364.752],[0.00873,-0.29221,0.95623,0.01251],conf,extj],Speed001,Zone001,Tool_Mill_Spindle \WObj:=DefaultFrame;
MoveL [[1360.067,-37.836,364.786],[0.00873,-0.29221,0.95623,0.01248],conf,extj],Speed001,Zone001,Tool_Mill_Spindle \WObj:=DefaultFrame;
MoveL [[1360.699,-39.722,364.82],[0.00873,-0.29221,0.95623,0.01246],conf,extj],Speed001,Zone001,Tool_Mill_Spindle \WObj:=DefaultFrame;
MoveL [[1360.889,-41.713,364.849],[0.0087,-0.29221,0.95623,0.01245],conf,extj],Speed001,Zone001,Tool_Mill_Spindle \WObj:=DefaultFrame;
MoveL [[1361.079,-43.703,364.879],[0.00865,-0.29221,0.95623,0.01244],conf,extj],Speed001,Zone001,Tool_Mill_Spindle \WObj:=DefaultFrame;
MoveL [[1361.268,-45.694,364.909],[0.00861,-0.29221,0.95624,0.01242],conf,extj],Speed001,Zone001,Tool_Mill_Spindle \WObj:=DefaultFrame;
MoveL [[1361.35,-47.681,364.938],[0.00855,-0.29221,0.95624,0.0124],conf,extj],Speed001,Zone001,Tool_Mill_Spindle \WObj:=DefaultFrame;
MoveL [[1361.026,-49.655,364.963],[0.00847,-0.29221,0.95624,0.01237],conf,extj],Speed001,Zone001,Tool_Mill_Spindle \WObj:=DefaultFrame;
MoveL [[1360.702,-51.629,364.988],[0.0084,-0.29221,0.95624,0.01233],conf,extj],Speed001,Zone001,Tool_Mill_Spindle \WObj:=DefaultFrame;
MoveL [[1360.377,-53.603,365.014],[0.00832,-0.29221,0.95624,0.01229],conf,extj],Speed001,Zone001,Tool_Mill_Spindle \WObj:=DefaultFrame;
MoveL [[1359.941,-55.545,365.039],[0.00825,-0.29221,0.95624,0.01223],conf,extj],Speed001,Zone001,Tool_Mill_Spindle \WObj:=DefaultFrame;
MoveL [[1359.179,-57.395,365.059],[0.00818,-0.29221,0.95624,0.01216],conf,extj],Speed001,Zone001,Tool_Mill_Spindle \WObj:=DefaultFrame;
MoveL [[1358.417,-59.244,365.081],[0.00811,-0.29221,0.95624,0.01208],conf,extj],Speed001,Zone001,Tool_Mill_Spindle \WObj:=DefaultFrame;
MoveL [[1357.655,-61.094,365.103],[0.00804,-0.29221,0.95624,0.01199],conf,extj],Speed001,Zone001,Tool_Mill_Spindle \WObj:=DefaultFrame;
MoveL [[1356.799,-62.895,365.125],[0.00798,-0.29221,0.95625,0.01189],conf,extj],Speed001,Zone001,Tool_Mill_Spindle \WObj:=DefaultFrame;
MoveL [[1355.725,-64.583,365.144],[0.00793,-0.29221,0.95625,0.0118],conf,extj],Speed001,Zone001,Tool_Mill_Spindle \WObj:=DefaultFrame;
MoveL [[1354.651,-66.271,365.163],[0.00789,-0.29222,0.95625,0.0117],conf,extj],Speed001,Zone001,Tool_Mill_Spindle \WObj:=DefaultFrame;
MoveL [[1353.577,-67.959,365.183],[0.00785,-0.29222,0.95625,0.01161],conf,extj],Speed001,Zone001,Tool_Mill_Spindle \WObj:=DefaultFrame;
MoveL [[1352.461,-69.618,365.202],[0.00781,-0.29222,0.95625,0.01152],conf,extj],Speed001,Zone001,Tool_Mill_Spindle \WObj:=DefaultFrame;
MoveL [[1351.263,-71.219,365.221],[0.00777,-0.29222,0.95625,0.01144],conf,extj],Speed001,Zone001,Tool_Mill_Spindle \WObj:=DefaultFrame;
MoveL [[1350.064,-72.821,365.24],[0.00774,-0.29222,0.95625,0.01136],conf,extj],Speed001,Zone001,Tool_Mill_Spindle \WObj:=DefaultFrame;
MoveL [[1348.866,-74.422,365.26],[0.00769,-0.29222,0.95625,0.01128],conf,extj],Speed001,Zone001,Tool_Mill_Spindle \WObj:=DefaultFrame;
MoveL [[1347.741,-76.073,365.282],[0.00765,-0.29222,0.95626,0.0112],conf,extj],Speed001,Zone001,Tool_Mill_Spindle \WObj:=DefaultFrame;
MoveL [[1346.739,-77.804,365.308],[0.0076,-0.29222,0.95626,0.01111],conf,extj],Speed001,Zone001,Tool_Mill_Spindle \WObj:=DefaultFrame;
MoveL [[1345.737,-79.536,365.334],[0.00754,-0.29222,0.95626,0.01102],conf,extj],Speed001,Zone001,Tool_Mill_Spindle \WObj:=DefaultFrame;
MoveL [[1344.735,-81.267,365.361],[0.00748,-0.29222,0.95626,0.01093],conf,extj],Speed001,Zone001,Tool_Mill_Spindle \WObj:=DefaultFrame;
MoveL [[1343.935,-83.082,365.393],[0.00742,-0.29222,0.95626,0.01084],conf,extj],Speed001,Zone001,Tool_Mill_Spindle \WObj:=DefaultFrame;
MoveL [[1343.413,-85.014,365.43],[0.00735,-0.29222,0.95626,0.01073],conf,extj],Speed001,Zone001,Tool_Mill_Spindle \WObj:=DefaultFrame;
MoveL [[1342.891,-86.945,365.468],[0.00727,-0.29222,0.95627,0.01061],conf,extj],Speed001,Zone001,Tool_Mill_Spindle \WObj:=DefaultFrame;
MoveL [[1342.368,-88.876,365.508],[0.00719,-0.29222,0.95627,0.01047],conf,extj],Speed001,Zone001,Tool_Mill_Spindle \WObj:=DefaultFrame;
MoveL [[1341.98,-90.834,365.551],[0.0071,-0.29222,0.95627,0.01032],conf,extj],Speed001,Zone001,Tool_Mill_Spindle \WObj:=DefaultFrame;
MoveL [[1341.744,-92.821,365.597],[0.00701,-0.29222,0.95627,0.01016],conf,extj],Speed001,Zone001,Tool_Mill_Spindle \WObj:=DefaultFrame;
MoveL [[1341.508,-94.808,365.645],[0.00691,-0.29222,0.95627,0.00997],conf,extj],Speed001,Zone001,Tool_Mill_Spindle \WObj:=DefaultFrame;
MoveL [[1341.272,-96.795,365.694],[0.00682,-0.29222,0.95628,0.00979],conf,extj],Speed001,Zone001,Tool_Mill_Spindle \WObj:=DefaultFrame;
MoveL [[1341.036,-98.781,365.745],[0.00675,-0.29222,0.95628,0.00963],conf,extj],Speed001,Zone001,Tool_Mill_Spindle \WObj:=DefaultFrame;
MoveL [[1340.8,-100.768,365.797],[0.00668,-0.29222,0.95628,0.0095],conf,extj],Speed001,Zone001,Tool_Mill_Spindle \WObj:=DefaultFrame;
MoveL [[1340.564,-102.754,365.85],[0.00663,-0.29222,0.95628,0.0094],conf,extj],Speed001,Zone001,Tool_Mill_Spindle \WObj:=DefaultFrame;
MoveL [[1340.328,-104.74,365.904],[0.0066,-0.29222,0.95628,0.00933],conf,extj],Speed001,Zone001,Tool_Mill_Spindle \WObj:=DefaultFrame;
MoveL [[1340.015,-106.713,365.957],[0.00658,-0.29222,0.95628,0.0093],conf,extj],Speed001,Zone001,Tool_Mill_Spindle \WObj:=DefaultFrame;
MoveL [[1339.636,-108.676,366.009],[0.0066,-0.29222,0.95628,0.00935],conf,extj],Speed001,Zone001,Tool_Mill_Spindle \WObj:=DefaultFrame;
MoveL [[1339.257,-110.638,366.061],[0.00666,-0.29222,0.95628,0.00952],conf,extj],Speed001,Zone001,Tool_Mill_Spindle \WObj:=DefaultFrame;
MoveL [[1338.879,-112.598,366.111],[0.00676,-0.29222,0.95628,0.0098],conf,extj],Speed001,Zone001,Tool_Mill_Spindle \WObj:=DefaultFrame;
MoveL [[1338.389,-114.531,366.156],[0.0069,-0.29222,0.95627,0.01019],conf,extj],Speed001,Zone001,Tool_Mill_Spindle \WObj:=DefaultFrame;
MoveL [[1337.817,-116.443,366.197],[0.00707,-0.29222,0.95627,0.01069],conf,extj],Speed001,Zone001,Tool_Mill_Spindle \WObj:=DefaultFrame;
MoveL [[1337.245,-118.354,366.233],[0.00729,-0.29222,0.95626,0.01129],conf,extj],Speed001,Zone001,Tool_Mill_Spindle \WObj:=DefaultFrame;
MoveL [[1336.673,-120.264,366.264],[0.00755,-0.29222,0.95625,0.01202],conf,extj],Speed001,Zone001,Tool_Mill_Spindle \WObj:=DefaultFrame;
MoveL [[1335.977,-122.129,366.286],[0.00784,-0.29222,0.95623,0.01285],conf,extj],Speed001,Zone001,Tool_Mill_Spindle \WObj:=DefaultFrame;
MoveL [[1335.203,-123.965,366.301],[0.00817,-0.29222,0.95622,0.01378],conf,extj],Speed001,Zone001,Tool_Mill_Spindle \WObj:=DefaultFrame;
MoveL [[1334.429,-125.801,366.308],[0.00855,-0.29221,0.9562,0.01483],conf,extj],Speed001,Zone001,Tool_Mill_Spindle \WObj:=DefaultFrame;
MoveL [[1333.655,-127.636,366.306],[0.00896,-0.29221,0.95618,0.016],conf,extj],Speed001,Zone001,Tool_Mill_Spindle \WObj:=DefaultFrame;
MoveL [[1332.752,-129.407,366.294],[0.0094,-0.29221,0.95615,0.01722],conf,extj],Speed001,Zone001,Tool_Mill_Spindle \WObj:=DefaultFrame;
MoveL [[1331.78,-131.144,366.272],[0.00985,-0.2922,0.95613,0.01847],conf,extj],Speed001,Zone001,Tool_Mill_Spindle \WObj:=DefaultFrame;
MoveL [[1330.808,-132.881,366.241],[0.01031,-0.2922,0.9561,0.01975],conf,extj],Speed001,Zone001,Tool_Mill_Spindle \WObj:=DefaultFrame;
MoveL [[1329.838,-134.618,366.199],[0.0108,-0.29219,0.95607,0.02108],conf,extj],Speed001,Zone001,Tool_Mill_Spindle \WObj:=DefaultFrame;
MoveL [[1328.74,-136.275,366.149],[0.01127,-0.29218,0.95603,0.0224],conf,extj],Speed001,Zone001,Tool_Mill_Spindle \WObj:=DefaultFrame;
MoveL [[1327.584,-137.895,366.089],[0.01175,-0.29217,0.956,0.02373],conf,extj],Speed001,Zone001,Tool_Mill_Spindle \WObj:=DefaultFrame;
MoveL [[1326.429,-139.514,366.02],[0.01225,-0.29217,0.95596,0.02514],conf,extj],Speed001,Zone001,Tool_Mill_Spindle \WObj:=DefaultFrame;
MoveL [[1325.275,-141.132,365.94],[0.01283,-0.29216,0.95591,0.02686],conf,extj],Speed001,Zone001,Tool_Mill_Spindle \WObj:=DefaultFrame;
MoveL [[1323.999,-142.652,365.851],[0.01346,-0.29214,0.95585,0.02878],conf,extj],Speed001,Zone001,Tool_Mill_Spindle \WObj:=DefaultFrame;
MoveL [[1322.673,-144.132,365.751],[0.01415,-0.29213,0.95577,0.03094],conf,extj],Speed001,Zone001,Tool_Mill_Spindle \WObj:=DefaultFrame;
MoveL [[1321.349,-145.609,365.637],[0.0149,-0.29211,0.95569,0.03337],conf,extj],Speed001,Zone001,Tool_Mill_Spindle \WObj:=DefaultFrame;
MoveL [[1320.029,-147.087,365.507],[0.01571,-0.29209,0.95558,0.03608],conf,extj],Speed001,Zone001,Tool_Mill_Spindle \WObj:=DefaultFrame;
MoveL [[1318.589,-148.446,365.369],[0.0165,-0.29206,0.95547,0.0388],conf,extj],Speed001,Zone001,Tool_Mill_Spindle \WObj:=DefaultFrame;
MoveL [[1317.107,-149.762,365.221],[0.01733,-0.29204,0.95534,0.04175],conf,extj],Speed001,Zone001,Tool_Mill_Spindle \WObj:=DefaultFrame;
MoveL [[1315.631,-151.075,365.054],[0.01846,-0.29199,0.95514,0.0458],conf,extj],Speed001,Zone001,Tool_Mill_Spindle \WObj:=DefaultFrame;
MoveL [[1314.153,-152.384,364.862],[0.01996,-0.29193,0.95487,0.05107],conf,extj],Speed001,Zone001,Tool_Mill_Spindle \WObj:=DefaultFrame;
MoveL [[1312.567,-153.556,364.662],[0.02158,-0.29184,0.95454,0.0568],conf,extj],Speed001,Zone001,Tool_Mill_Spindle \WObj:=DefaultFrame;
MoveL [[1310.949,-154.681,364.44],[0.02337,-0.29173,0.95413,0.06315],conf,extj],Speed001,Zone001,Tool_Mill_Spindle \WObj:=DefaultFrame;
MoveL [[1309.326,-155.8,364.188],[0.02538,-0.29159,0.95362,0.07023],conf,extj],Speed001,Zone001,Tool_Mill_Spindle \WObj:=DefaultFrame;
MoveL [[1307.703,-156.912,363.903],[0.02758,-0.29142,0.95302,0.07796],conf,extj],Speed001,Zone001,Tool_Mill_Spindle \WObj:=DefaultFrame;
MoveL [[1305.99,-157.877,363.623],[0.02961,-0.29124,0.95239,0.08512],conf,extj],Speed001,Zone001,Tool_Mill_Spindle \WObj:=DefaultFrame;
MoveL [[1304.24,-158.783,363.33],[0.03161,-0.29105,0.95173,0.09217],conf,extj],Speed001,Zone001,Tool_Mill_Spindle \WObj:=DefaultFrame;
MoveL [[1302.493,-159.682,363.012],[0.03368,-0.29084,0.95099,0.09944],conf,extj],Speed001,Zone001,Tool_Mill_Spindle \WObj:=DefaultFrame;
MoveL [[1300.758,-160.591,362.658],[0.03602,-0.29058,0.95011,0.10753],conf,extj],Speed001,Zone001,Tool_Mill_Spindle \WObj:=DefaultFrame;
MoveL [[1298.943,-161.341,362.338],[0.03813,-0.29033,0.94925,0.11481],conf,extj],Speed001,Zone001,Tool_Mill_Spindle \WObj:=DefaultFrame;
MoveL [[1297.09,-162.012,362.027],[0.04015,-0.29007,0.94838,0.12173],conf,extj],Speed001,Zone001,Tool_Mill_Spindle \WObj:=DefaultFrame;
MoveL [[1295.238,-162.676,361.696],[0.04226,-0.28978,0.94743,0.12892],conf,extj],Speed001,Zone001,Tool_Mill_Spindle \WObj:=DefaultFrame;
MoveL [[1293.386,-163.326,361.348],[0.04442,-0.28947,0.9464,0.13622],conf,extj],Speed001,Zone001,Tool_Mill_Spindle \WObj:=DefaultFrame;
MoveL [[1291.483,-163.834,361.057],[0.04616,-0.28921,0.94555,0.14202],conf,extj],Speed001,Zone001,Tool_Mill_Spindle \WObj:=DefaultFrame;
MoveL [[1289.566,-164.304,360.773],[0.04778,-0.28896,0.94471,0.14746],conf,extj],Speed001,Zone001,Tool_Mill_Spindle \WObj:=DefaultFrame;
MoveL [[1287.636,-164.729,360.502],[0.04926,-0.28873,0.94392,0.15241],conf,extj],Speed001,Zone001,Tool_Mill_Spindle \WObj:=DefaultFrame;
MoveL [[1285.707,-165.157,360.218],[0.05074,-0.28848,0.94309,0.15741],conf,extj],Speed001,Zone001,Tool_Mill_Spindle \WObj:=DefaultFrame;
MoveL [[1283.754,-165.49,359.988],[0.05186,-0.28829,0.94244,0.16127],conf,extj],Speed001,Zone001,Tool_Mill_Spindle \WObj:=DefaultFrame;
MoveL [[1281.781,-165.745,359.804],[0.0527,-0.28815,0.94193,0.16418],conf,extj],Speed001,Zone001,Tool_Mill_Spindle \WObj:=DefaultFrame;
MoveL [[1279.81,-166.014,359.607],[0.05358,-0.288,0.9414,0.16722],conf,extj],Speed001,Zone001,Tool_Mill_Spindle \WObj:=DefaultFrame;
MoveL [[1277.838,-166.268,359.416],[0.05442,-0.28785,0.94088,0.17005],conf,extj],Speed001,Zone001,Tool_Mill_Spindle \WObj:=DefaultFrame;
MoveL [[1275.852,-166.437,359.285],[0.05498,-0.28775,0.94056,0.17183],conf,extj],Speed001,Zone001,Tool_Mill_Spindle \WObj:=DefaultFrame;
MoveL [[1273.859,-166.563,359.185],[0.0554,-0.28768,0.94034,0.17304],conf,extj],Speed001,Zone001,Tool_Mill_Spindle \WObj:=DefaultFrame;
MoveL [[1271.865,-166.658,359.107],[0.05573,-0.28762,0.94018,0.17387],conf,extj],Speed001,Zone001,Tool_Mill_Spindle \WObj:=DefaultFrame;
MoveL [[1269.873,-166.796,358.994],[0.05619,-0.28753,0.93993,0.17521],conf,extj],Speed001,Zone001,Tool_Mill_Spindle \WObj:=DefaultFrame;
MoveL [[1267.878,-166.876,358.925],[0.05644,-0.28749,0.93981,0.17583],conf,extj],Speed001,Zone001,Tool_Mill_Spindle \WObj:=DefaultFrame;
MoveL [[1265.88,-166.866,358.926],[0.05638,-0.2875,0.9399,0.17535],conf,extj],Speed001,Zone001,Tool_Mill_Spindle \WObj:=DefaultFrame;
MoveL [[1263.881,-166.902,358.89],[0.05645,-0.28748,0.93989,0.17541],conf,extj],Speed001,Zone001,Tool_Mill_Spindle \WObj:=DefaultFrame;
MoveL [[1261.882,-166.936,358.855],[0.05646,-0.28748,0.93988,0.17546],conf,extj],Speed001,Zone001,Tool_Mill_Spindle \WObj:=DefaultFrame;
MoveL [[1259.882,-166.926,358.855],[0.05627,-0.28752,0.93997,0.17498],conf,extj],Speed001,Zone001,Tool_Mill_Spindle \WObj:=DefaultFrame;
MoveL [[1257.882,-166.914,358.858],[0.05601,-0.28756,0.94007,0.17449],conf,extj],Speed001,Zone001,Tool_Mill_Spindle \WObj:=DefaultFrame;
MoveL [[1255.882,-166.887,358.873],[0.05566,-0.28763,0.94019,0.17382],conf,extj],Speed001,Zone001,Tool_Mill_Spindle \WObj:=DefaultFrame;
MoveL [[1253.881,-166.864,358.886],[0.05531,-0.28769,0.94031,0.17321],conf,extj],Speed001,Zone001,Tool_Mill_Spindle \WObj:=DefaultFrame;
MoveL [[1251.882,-166.806,358.928],[0.05483,-0.28778,0.9405,0.17217],conf,extj],Speed001,Zone001,Tool_Mill_Spindle \WObj:=DefaultFrame;
MoveL [[1249.883,-166.762,358.96],[0.0544,-0.28785,0.94066,0.1713],conf,extj],Speed001,Zone001,Tool_Mill_Spindle \WObj:=DefaultFrame;
MoveL [[1247.885,-166.688,359.015],[0.05385,-0.28795,0.94088,0.17007],conf,extj],Speed001,Zone001,Tool_Mill_Spindle \WObj:=DefaultFrame;
MoveL [[1245.887,-166.626,359.063],[0.05339,-0.28803,0.94108,0.169],conf,extj],Speed001,Zone001,Tool_Mill_Spindle \WObj:=DefaultFrame;
MoveL [[1243.891,-166.527,359.138],[0.05285,-0.28812,0.94136,0.16744],conf,extj],Speed001,Zone001,Tool_Mill_Spindle \WObj:=DefaultFrame;
MoveL [[1241.896,-166.418,359.219],[0.05233,-0.28821,0.94166,0.16576],conf,extj],Speed001,Zone001,Tool_Mill_Spindle \WObj:=DefaultFrame;
MoveL [[1239.902,-166.306,359.301],[0.05185,-0.28829,0.94196,0.16403],conf,extj],Speed001,Zone001,Tool_Mill_Spindle \WObj:=DefaultFrame;
MoveL [[1237.907,-166.204,359.374],[0.05143,-0.28836,0.94224,0.16242],conf,extj],Speed001,Zone001,Tool_Mill_Spindle \WObj:=DefaultFrame;
MoveL [[1235.915,-166.072,359.466],[0.05094,-0.28844,0.94258,0.16044],conf,extj],Speed001,Zone001,Tool_Mill_Spindle \WObj:=DefaultFrame;
MoveL [[1233.924,-165.933,359.56],[0.05044,-0.28852,0.94294,0.15837],conf,extj],Speed001,Zone001,Tool_Mill_Spindle \WObj:=DefaultFrame;
MoveL [[1231.932,-165.791,359.652],[0.04997,-0.28859,0.94329,0.15629],conf,extj],Speed001,Zone001,Tool_Mill_Spindle \WObj:=DefaultFrame;
MoveL [[1229.94,-165.659,359.736],[0.04953,-0.28866,0.94361,0.15433],conf,extj],Speed001,Zone001,Tool_Mill_Spindle \WObj:=DefaultFrame;
MoveL [[1227.944,-165.551,359.801],[0.04918,-0.28871,0.94388,0.15271],conf,extj],Speed001,Zone001,Tool_Mill_Spindle \WObj:=DefaultFrame;
MoveL [[1225.948,-165.448,359.86],[0.04884,-0.28876,0.94413,0.15118],conf,extj],Speed001,Zone001,Tool_Mill_Spindle \WObj:=DefaultFrame;
MoveL [[1223.952,-165.348,359.916],[0.04849,-0.28881,0.94437,0.1497],conf,extj],Speed001,Zone001,Tool_Mill_Spindle \WObj:=DefaultFrame;
MoveL [[1221.956,-165.25,359.969],[0.04815,-0.28886,0.94459,0.14827],conf,extj],Speed001,Zone001,Tool_Mill_Spindle \WObj:=DefaultFrame;
MoveL [[1219.96,-165.325,359.915],[0.04846,-0.28881,0.94447,0.14902],conf,extj],Speed001,Zone001,Tool_Mill_Spindle \WObj:=DefaultFrame;
MoveL [[1217.962,-165.393,359.864],[0.04874,-0.28877,0.94437,0.14969],conf,extj],Speed001,Zone001,Tool_Mill_Spindle \WObj:=DefaultFrame;
MoveL [[1215.964,-165.464,359.81],[0.04904,-0.28872,0.94425,0.1504],conf,extj],Speed001,Zone001,Tool_Mill_Spindle \WObj:=DefaultFrame;
MoveL [[1213.967,-165.532,359.757],[0.04931,-0.28868,0.94414,0.15107],conf,extj],Speed001,Zone001,Tool_Mill_Spindle \WObj:=DefaultFrame;
MoveL [[1211.98,-165.716,359.63],[0.04999,-0.28858,0.9438,0.15319],conf,extj],Speed001,Zone001,Tool_Mill_Spindle \WObj:=DefaultFrame;
MoveL [[1209.995,-165.912,359.492],[0.05068,-0.28847,0.94343,0.15545],conf,extj],Speed001,Zone001,Tool_Mill_Spindle \WObj:=DefaultFrame;
MoveL [[1208.012,-166.117,359.346],[0.05137,-0.28836,0.94303,0.1578],conf,extj],Speed001,Zone001,Tool_Mill_Spindle \WObj:=DefaultFrame;
MoveL [[1206.027,-166.311,359.204],[0.05198,-0.28826,0.94266,0.16002],conf,extj],Speed001,Zone001,Tool_Mill_Spindle \WObj:=DefaultFrame;
MoveL [[1204.038,-166.471,359.086],[0.05243,-0.28818,0.94236,0.16176],conf,extj],Speed001,Zone001,Tool_Mill_Spindle \WObj:=DefaultFrame;
MoveL [[1202.043,-166.579,359.001],[0.05268,-0.28814,0.94217,0.16286],conf,extj],Speed001,Zone001,Tool_Mill_Spindle \WObj:=DefaultFrame;
MoveL [[1200.051,-166.712,358.9],[0.053,-0.28809,0.94192,0.16425],conf,extj],Speed001,Zone001,Tool_Mill_Spindle \WObj:=DefaultFrame;
MoveL [[1198.058,-166.843,358.8],[0.05329,-0.28804,0.94169,0.16558],conf,extj],Speed001,Zone001,Tool_Mill_Spindle \WObj:=DefaultFrame;
MoveL [[1196.065,-166.71,358.888],[0.05264,-0.28815,0.94203,0.16364],conf,extj],Speed001,Zone001,Tool_Mill_Spindle \WObj:=DefaultFrame;
MoveL [[1194.071,-166.582,358.971],[0.05202,-0.28825,0.94236,0.16173],conf,extj],Speed001,Zone001,Tool_Mill_Spindle \WObj:=DefaultFrame;
MoveL [[1192.078,-166.451,359.055],[0.0514,-0.28835,0.9427,0.15976],conf,extj],Speed001,Zone001,Tool_Mill_Spindle \WObj:=DefaultFrame;
MoveL [[1190.089,-166.303,359.149],[0.05073,-0.28845,0.94308,0.15757],conf,extj],Speed001,Zone001,Tool_Mill_Spindle \WObj:=DefaultFrame;
MoveL [[1188.18,-165.811,359.462],[0.04885,-0.28873,0.94415,0.15109],conf,extj],Speed001,Zone001,Tool_Mill_Spindle \WObj:=DefaultFrame;
MoveL [[1186.272,-165.306,359.762],[0.04694,-0.28899,0.9452,0.14448],conf,extj],Speed001,Zone001,Tool_Mill_Spindle \WObj:=DefaultFrame;
MoveL [[1184.358,-164.819,360.033],[0.04513,-0.28922,0.94617,0.13814],conf,extj],Speed001,Zone001,Tool_Mill_Spindle \WObj:=DefaultFrame;
MoveL [[1182.46,-164.277,360.315],[0.04316,-0.28946,0.94717,0.13125],conf,extj],Speed001,Zone001,Tool_Mill_Spindle \WObj:=DefaultFrame;
MoveL [[1180.761,-163.34,360.763],[0.03993,-0.2898,0.9487,0.11999],conf,extj],Speed001,Zone001,Tool_Mill_Spindle \WObj:=DefaultFrame;
MoveL [[1179.063,-162.379,361.168],[0.03681,-0.29009,0.95004,0.10918],conf,extj],Speed001,Zone001,Tool_Mill_Spindle \WObj:=DefaultFrame;
MoveL [[1177.355,-161.424,361.522],[0.03394,-0.29032,0.95115,0.09937],conf,extj],Speed001,Zone001,Tool_Mill_Spindle \WObj:=DefaultFrame;
MoveL [[1175.642,-160.456,361.837],[0.03135,-0.29052,0.95206,0.09057],conf,extj],Speed001,Zone001,Tool_Mill_Spindle \WObj:=DefaultFrame;
MoveL [[1174.249,-159.099,362.227],[0.0283,-0.2907,0.95301,0.08035],conf,extj],Speed001,Zone001,Tool_Mill_Spindle \WObj:=DefaultFrame;
MoveL [[1172.843,-157.74,362.56],[0.02556,-0.29085,0.95376,0.07132],conf,extj],Speed001,Zone001,Tool_Mill_Spindle \WObj:=DefaultFrame;
MoveL [[1171.433,-156.378,362.842],[0.02307,-0.29097,0.95437,0.06318],conf,extj],Speed001,Zone001,Tool_Mill_Spindle \WObj:=DefaultFrame;
MoveL [[1170.022,-155.013,363.079],[0.02089,-0.29106,0.95484,0.05603],conf,extj],Speed001,Zone001,Tool_Mill_Spindle \WObj:=DefaultFrame;
MoveL [[1168.994,-153.351,363.322],[0.01865,-0.29113,0.95526,0.04875],conf,extj],Speed001,Zone001,Tool_Mill_Spindle \WObj:=DefaultFrame;
MoveL [[1167.991,-151.664,363.523],[0.01694,-0.29118,0.95555,0.04307],conf,extj],Speed001,Zone001,Tool_Mill_Spindle \WObj:=DefaultFrame;
MoveL [[1166.988,-149.972,363.69],[0.01582,-0.2912,0.95573,0.03911],conf,extj],Speed001,Zone001,Tool_Mill_Spindle \WObj:=DefaultFrame;
MoveL [[1165.982,-148.271,363.835],[0.01524,-0.29122,0.95583,0.03664],conf,extj],Speed001,Zone001,Tool_Mill_Spindle \WObj:=DefaultFrame;
MoveL [[1165.426,-146.377,363.983],[0.01465,-0.29123,0.95593,0.03428],conf,extj],Speed001,Zone001,Tool_Mill_Spindle \WObj:=DefaultFrame;
MoveL [[1164.912,-144.465,364.115],[0.01415,-0.29123,0.95601,0.03214],conf,extj],Speed001,Zone001,Tool_Mill_Spindle \WObj:=DefaultFrame;
MoveL [[1164.398,-142.553,364.231],[0.01375,-0.29124,0.95607,0.03025],conf,extj],Speed001,Zone001,Tool_Mill_Spindle \WObj:=DefaultFrame;
MoveL [[1163.881,-140.635,364.333],[0.01343,-0.29124,0.95613,0.02862],conf,extj],Speed001,Zone001,Tool_Mill_Spindle \WObj:=DefaultFrame;
MoveL [[1163.856,-138.652,364.432],[0.01295,-0.29125,0.95617,0.02727],conf,extj],Speed001,Zone001,Tool_Mill_Spindle \WObj:=DefaultFrame;
MoveL [[1163.867,-136.665,364.52],[0.01246,-0.29126,0.95621,0.02605],conf,extj],Speed001,Zone001,Tool_Mill_Spindle \WObj:=DefaultFrame;
MoveL [[1163.878,-134.676,364.599],[0.01192,-0.29127,0.95625,0.02483],conf,extj],Speed001,Zone001,Tool_Mill_Spindle \WObj:=DefaultFrame;
MoveL [[1163.889,-132.688,364.667],[0.01134,-0.29127,0.95628,0.0236],conf,extj],Speed001,Zone001,Tool_Mill_Spindle \WObj:=DefaultFrame;
MoveL [[1164.4,-130.768,364.726],[0.01053,-0.29129,0.95631,0.0224],conf,extj],Speed001,Zone001,Tool_Mill_Spindle \WObj:=DefaultFrame;
MoveL [[1164.928,-128.852,364.774],[0.00969,-0.2913,0.95635,0.02118],conf,extj],Speed001,Zone001,Tool_Mill_Spindle \WObj:=DefaultFrame;
MoveL [[1165.457,-126.935,364.81],[0.00884,-0.29132,0.95638,0.01994],conf,extj],Speed001,Zone001,Tool_Mill_Spindle \WObj:=DefaultFrame;
MoveL [[1165.437,-127.063,396.811],[0.00359,-0.29126,0.95662,0.00609],conf,extj],Speed001,Zone001,Tool_Mill_Spindle \WObj:=DefaultFrame;
MoveL [[1168.112,-134.1,396.661],[0.00553,-0.29223,0.95622,0.01449],conf,extj],Speed001,Zone001,Tool_Mill_Spindle \WObj:=DefaultFrame;
MoveL [[1168.179,-133.11,364.677],[0.00969,-0.2921,0.95604,0.02398],conf,extj],Speed001,Zone001,Tool_Mill_Spindle \WObj:=DefaultFrame;
MoveL [[1168.446,-131.139,364.733],[0.00899,-0.29212,0.95607,0.0227],conf,extj],Speed001,Zone001,Tool_Mill_Spindle \WObj:=DefaultFrame;
MoveL [[1168.913,-129.226,364.776],[0.0082,-0.29213,0.9561,0.02144],conf,extj],Speed001,Zone001,Tool_Mill_Spindle \WObj:=DefaultFrame;
MoveL [[1169.736,-127.416,364.805],[0.00728,-0.29215,0.95613,0.02023],conf,extj],Speed001,Zone001,Tool_Mill_Spindle \WObj:=DefaultFrame;
MoveL [[1170.559,-125.606,364.822],[0.00635,-0.29217,0.95616,0.01907],conf,extj],Speed001,Zone001,Tool_Mill_Spindle \WObj:=DefaultFrame;
MoveL [[1171.382,-123.796,364.828],[0.00542,-0.29219,0.95618,0.01798],conf,extj],Speed001,Zone001,Tool_Mill_Spindle \WObj:=DefaultFrame;
MoveL [[1172.462,-122.147,364.82],[0.00444,-0.2922,0.95619,0.01708],conf,extj],Speed001,Zone001,Tool_Mill_Spindle \WObj:=DefaultFrame;
MoveL [[1173.739,-120.621,364.801],[0.00343,-0.29222,0.9562,0.01636],conf,extj],Speed001,Zone001,Tool_Mill_Spindle \WObj:=DefaultFrame;
MoveL [[1175.016,-119.095,364.772],[0.00257,-0.29224,0.95621,0.01574],conf,extj],Speed001,Zone001,Tool_Mill_Spindle \WObj:=DefaultFrame;
MoveL [[1176.295,-117.567,364.737],[0.00195,-0.29225,0.95622,0.01525],conf,extj],Speed001,Zone001,Tool_Mill_Spindle \WObj:=DefaultFrame;
MoveL [[1177.814,-116.288,364.694],[0.00159,-0.29225,0.95622,0.01499],conf,extj],Speed001,Zone001,Tool_Mill_Spindle \WObj:=DefaultFrame;
MoveL [[1179.404,-115.08,364.65],[0.00154,-0.29225,0.95622,0.01488],conf,extj],Speed001,Zone001,Tool_Mill_Spindle \WObj:=DefaultFrame;
MoveL [[1180.999,-113.87,364.606],[0.00181,-0.29225,0.95622,0.01488],conf,extj],Speed001,Zone001,Tool_Mill_Spindle \WObj:=DefaultFrame;
MoveL [[1182.595,-112.659,364.565],[0.00237,-0.29224,0.95622,0.01496],conf,extj],Speed001,Zone001,Tool_Mill_Spindle \WObj:=DefaultFrame;
MoveL [[1184.314,-111.712,364.531],[0.00321,-0.29223,0.95622,0.01512],conf,extj],Speed001,Zone001,Tool_Mill_Spindle \WObj:=DefaultFrame;
MoveL [[1185.919,-110.844,364.507],[0.00424,-0.29221,0.95622,0.01528],conf,extj],Speed001,Zone001,Tool_Mill_Spindle \WObj:=DefaultFrame;
MoveL [[1187.587,-109.927,364.49],[0.00553,-0.29219,0.95622,0.01541],conf,extj],Speed001,Zone001,Tool_Mill_Spindle \WObj:=DefaultFrame;
MoveL [[1189.274,-108.986,364.483],[0.00701,-0.29217,0.95622,0.01549],conf,extj],Speed001,Zone001,Tool_Mill_Spindle \WObj:=DefaultFrame;
MoveL [[1190.941,-108.069,364.487],[0.00854,-0.29214,0.95621,0.01549],conf,extj],Speed001,Zone001,Tool_Mill_Spindle \WObj:=DefaultFrame;
MoveL [[1192.698,-107.113,364.504],[0.00994,-0.29212,0.95621,0.01545],conf,extj],Speed001,Zone001,Tool_Mill_Spindle \WObj:=DefaultFrame;
MoveL [[1194.465,-106.156,364.53],[0.01107,-0.2921,0.9562,0.01537],conf,extj],Speed001,Zone001,Tool_Mill_Spindle \WObj:=DefaultFrame;
MoveL [[1196.211,-105.173,364.564],[0.01191,-0.29208,0.9562,0.01523],conf,extj],Speed001,Zone001,Tool_Mill_Spindle \WObj:=DefaultFrame;
MoveL [[1197.801,-103.954,364.599],[0.01239,-0.29207,0.9562,0.01506],conf,extj],Speed001,Zone001,Tool_Mill_Spindle \WObj:=DefaultFrame;
MoveL [[1199.389,-102.738,364.636],[0.01257,-0.29207,0.9562,0.01481],conf,extj],Speed001,Zone001,Tool_Mill_Spindle \WObj:=DefaultFrame;
MoveL [[1200.973,-101.522,364.672],[0.01244,-0.29207,0.95621,0.01452],conf,extj],Speed001,Zone001,Tool_Mill_Spindle \WObj:=DefaultFrame;
MoveL [[1202.482,-100.228,364.703],[0.01203,-0.29207,0.95622,0.01421],conf,extj],Speed001,Zone001,Tool_Mill_Spindle \WObj:=DefaultFrame;
MoveL [[1203.824,-98.754,364.725],[0.01141,-0.29208,0.95622,0.0139],conf,extj],Speed001,Zone001,Tool_Mill_Spindle \WObj:=DefaultFrame;
MoveL [[1205.166,-97.28,364.742],[0.01066,-0.29209,0.95624,0.01358],conf,extj],Speed001,Zone001,Tool_Mill_Spindle \WObj:=DefaultFrame;
MoveL [[1206.507,-95.806,364.752],[0.00983,-0.2921,0.95624,0.01328],conf,extj],Speed001,Zone001,Tool_Mill_Spindle \WObj:=DefaultFrame;
MoveL [[1207.773,-94.27,364.753],[0.00902,-0.29211,0.95625,0.01301],conf,extj],Speed001,Zone001,Tool_Mill_Spindle \WObj:=DefaultFrame;
MoveL [[1208.969,-92.674,364.746],[0.0083,-0.29212,0.95626,0.01278],conf,extj],Speed001,Zone001,Tool_Mill_Spindle \WObj:=DefaultFrame;
MoveL [[1210.165,-91.077,364.735],[0.00769,-0.29213,0.95626,0.0126],conf,extj],Speed001,Zone001,Tool_Mill_Spindle \WObj:=DefaultFrame;
MoveL [[1211.362,-89.481,364.719],[0.00719,-0.29214,0.95627,0.01246],conf,extj],Speed001,Zone001,Tool_Mill_Spindle \WObj:=DefaultFrame;
MoveL [[1212.519,-87.853,364.699],[0.0068,-0.29214,0.95627,0.01236],conf,extj],Speed001,Zone001,Tool_Mill_Spindle \WObj:=DefaultFrame;
MoveL [[1213.659,-86.212,364.676],[0.00651,-0.29215,0.95627,0.01229],conf,extj],Speed001,Zone001,Tool_Mill_Spindle \WObj:=DefaultFrame;
MoveL [[1214.8,-84.572,364.651],[0.00631,-0.29215,0.95627,0.01227],conf,extj],Speed001,Zone001,Tool_Mill_Spindle \WObj:=DefaultFrame;
MoveL [[1215.941,-82.93,364.626],[0.0062,-0.29215,0.95627,0.01226],conf,extj],Speed001,Zone001,Tool_Mill_Spindle \WObj:=DefaultFrame;
MoveL [[1217.067,-81.278,364.6],[0.00615,-0.29215,0.95627,0.01228],conf,extj],Speed001,Zone001,Tool_Mill_Spindle \WObj:=DefaultFrame;
MoveL [[1218.191,-79.624,364.573],[0.00614,-0.29215,0.95627,0.0123],conf,extj],Speed001,Zone001,Tool_Mill_Spindle \WObj:=DefaultFrame;
MoveL [[1219.316,-77.97,364.547],[0.00617,-0.29215,0.95627,0.01232],conf,extj],Speed001,Zone001,Tool_Mill_Spindle \WObj:=DefaultFrame;
MoveL [[1220.446,-76.32,364.521],[0.0062,-0.29215,0.95627,0.01234],conf,extj],Speed001,Zone001,Tool_Mill_Spindle \WObj:=DefaultFrame;
MoveL [[1221.621,-74.701,364.496],[0.00624,-0.29215,0.95627,0.01236],conf,extj],Speed001,Zone001,Tool_Mill_Spindle \WObj:=DefaultFrame;
MoveL [[1222.796,-73.083,364.472],[0.00628,-0.29215,0.95627,0.01237],conf,extj],Speed001,Zone001,Tool_Mill_Spindle \WObj:=DefaultFrame;
MoveL [[1223.971,-71.464,364.448],[0.00631,-0.29215,0.95627,0.01237],conf,extj],Speed001,Zone001,Tool_Mill_Spindle \WObj:=DefaultFrame;
MoveL [[1225.174,-69.868,364.424],[0.00632,-0.29215,0.95627,0.01237],conf,extj],Speed001,Zone001,Tool_Mill_Spindle \WObj:=DefaultFrame;
MoveL [[1226.443,-68.322,364.401],[0.00633,-0.29215,0.95627,0.01237],conf,extj],Speed001,Zone001,Tool_Mill_Spindle \WObj:=DefaultFrame;
MoveL [[1227.713,-66.777,364.379],[0.00634,-0.29215,0.95627,0.01237],conf,extj],Speed001,Zone001,Tool_Mill_Spindle \WObj:=DefaultFrame;
MoveL [[1228.982,-65.231,364.356],[0.00635,-0.29215,0.95627,0.01236],conf,extj],Speed001,Zone001,Tool_Mill_Spindle \WObj:=DefaultFrame;
MoveL [[1230.325,-63.754,364.335],[0.00635,-0.29215,0.95627,0.01234],conf,extj],Speed001,Zone001,Tool_Mill_Spindle \WObj:=DefaultFrame;
MoveL [[1231.743,-62.343,364.315],[0.00636,-0.29215,0.95627,0.01233],conf,extj],Speed001,Zone001,Tool_Mill_Spindle \WObj:=DefaultFrame;
MoveL [[1233.16,-60.932,364.295],[0.00638,-0.29215,0.95627,0.01232],conf,extj],Speed001,Zone001,Tool_Mill_Spindle \WObj:=DefaultFrame;
MoveL [[1234.577,-59.522,364.276],[0.00641,-0.29215,0.95627,0.01232],conf,extj],Speed001,Zone001,Tool_Mill_Spindle \WObj:=DefaultFrame;
MoveL [[1236.106,-58.238,364.259],[0.00646,-0.29215,0.95627,0.01233],conf,extj],Speed001,Zone001,Tool_Mill_Spindle \WObj:=DefaultFrame;
MoveL [[1237.683,-57.007,364.244],[0.00653,-0.29215,0.95627,0.01235],conf,extj],Speed001,Zone001,Tool_Mill_Spindle \WObj:=DefaultFrame;
MoveL [[1239.26,-55.776,364.229],[0.00661,-0.29214,0.95627,0.01238],conf,extj],Speed001,Zone001,Tool_Mill_Spindle \WObj:=DefaultFrame;
MoveL [[1240.837,-54.545,364.215],[0.00672,-0.29214,0.95627,0.01241],conf,extj],Speed001,Zone001,Tool_Mill_Spindle \WObj:=DefaultFrame;
MoveL [[1242.557,-53.526,364.206],[0.00682,-0.29214,0.95627,0.01245],conf,extj],Speed001,Zone001,Tool_Mill_Spindle \WObj:=DefaultFrame;
MoveL [[1244.292,-52.529,364.199],[0.00691,-0.29214,0.95627,0.0125],conf,extj],Speed001,Zone001,Tool_Mill_Spindle \WObj:=DefaultFrame;
MoveL [[1246.026,-51.533,364.192],[0.00699,-0.29214,0.95627,0.01255],conf,extj],Speed001,Zone001,Tool_Mill_Spindle \WObj:=DefaultFrame;
MoveL [[1247.774,-50.565,364.186],[0.00704,-0.29214,0.95627,0.01261],conf,extj],Speed001,Zone001,Tool_Mill_Spindle \WObj:=DefaultFrame;
MoveL [[1249.637,-49.836,364.185],[0.00706,-0.29214,0.95627,0.01268],conf,extj],Speed001,Zone001,Tool_Mill_Spindle \WObj:=DefaultFrame;
MoveL [[1251.499,-49.107,364.184],[0.00705,-0.29214,0.95626,0.01274],conf,extj],Speed001,Zone001,Tool_Mill_Spindle \WObj:=DefaultFrame;
MoveL [[1253.352,-48.383,364.182],[0.00701,-0.29214,0.95626,0.0128],conf,extj],Speed001,Zone001,Tool_Mill_Spindle \WObj:=DefaultFrame;
MoveL [[1255.168,-47.759,364.182],[0.00694,-0.29214,0.95626,0.01285],conf,extj],Speed001,Zone001,Tool_Mill_Spindle \WObj:=DefaultFrame;
MoveL [[1257.045,-47.324,364.184],[0.00682,-0.29214,0.95626,0.01288],conf,extj],Speed001,Zone001,Tool_Mill_Spindle \WObj:=DefaultFrame;
MoveL [[1258.952,-46.877,364.185],[0.00668,-0.29215,0.95626,0.01289],conf,extj],Speed001,Zone001,Tool_Mill_Spindle \WObj:=DefaultFrame;
MoveL [[1260.849,-46.431,364.184],[0.00653,-0.29215,0.95626,0.01286],conf,extj],Speed001,Zone001,Tool_Mill_Spindle \WObj:=DefaultFrame;
MoveL [[1262.785,-46.081,364.184],[0.00638,-0.29215,0.95627,0.01278],conf,extj],Speed001,Zone001,Tool_Mill_Spindle \WObj:=DefaultFrame;
MoveL [[1264.774,-45.892,364.186],[0.00623,-0.29215,0.95627,0.01264],conf,extj],Speed001,Zone001,Tool_Mill_Spindle \WObj:=DefaultFrame;
MoveL [[1266.764,-45.704,364.187],[0.00607,-0.29215,0.95627,0.01244],conf,extj],Speed001,Zone001,Tool_Mill_Spindle \WObj:=DefaultFrame;
MoveL [[1268.755,-45.516,364.187],[0.00594,-0.29215,0.95628,0.01218],conf,extj],Speed001,Zone001,Tool_Mill_Spindle \WObj:=DefaultFrame;
MoveL [[1270.75,-45.442,364.188],[0.00587,-0.29215,0.95628,0.01186],conf,extj],Speed001,Zone001,Tool_Mill_Spindle \WObj:=DefaultFrame;
MoveL [[1272.751,-45.454,364.192],[0.00586,-0.29215,0.95628,0.01151],conf,extj],Speed001,Zone001,Tool_Mill_Spindle \WObj:=DefaultFrame;
MoveL [[1274.752,-45.467,364.197],[0.0059,-0.29215,0.95629,0.01115],conf,extj],Speed001,Zone001,Tool_Mill_Spindle \WObj:=DefaultFrame;
MoveL [[1276.753,-45.478,364.203],[0.00599,-0.29215,0.95629,0.0108],conf,extj],Speed001,Zone001,Tool_Mill_Spindle \WObj:=DefaultFrame;
MoveL [[1278.753,-45.566,364.213],[0.00614,-0.29215,0.9563,0.01051],conf,extj],Speed001,Zone001,Tool_Mill_Spindle \WObj:=DefaultFrame;
MoveL [[1280.751,-45.676,364.225],[0.00634,-0.29214,0.9563,0.01031],conf,extj],Speed001,Zone001,Tool_Mill_Spindle \WObj:=DefaultFrame;
MoveL [[1282.751,-45.785,364.239],[0.00659,-0.29214,0.9563,0.01022],conf,extj],Speed001,Zone001,Tool_Mill_Spindle \WObj:=DefaultFrame;
MoveL [[1284.749,-45.892,364.255],[0.00685,-0.29214,0.9563,0.01028],conf,extj],Speed001,Zone001,Tool_Mill_Spindle \WObj:=DefaultFrame;
MoveL [[1286.751,-45.907,364.271],[0.00709,-0.29214,0.95629,0.01043],conf,extj],Speed001,Zone001,Tool_Mill_Spindle \WObj:=DefaultFrame;
MoveL [[1288.752,-45.918,364.287],[0.00732,-0.29213,0.95629,0.01066],conf,extj],Speed001,Zone001,Tool_Mill_Spindle \WObj:=DefaultFrame;
MoveL [[1290.752,-45.929,364.305],[0.00751,-0.29213,0.95629,0.01094],conf,extj],Speed001,Zone001,Tool_Mill_Spindle \WObj:=DefaultFrame;
MoveL [[1292.742,-45.852,364.322],[0.00769,-0.29213,0.95628,0.01121],conf,extj],Speed001,Zone001,Tool_Mill_Spindle \WObj:=DefaultFrame;
MoveL [[1294.677,-45.342,364.33],[0.00787,-0.29213,0.95628,0.01145],conf,extj],Speed001,Zone001,Tool_Mill_Spindle \WObj:=DefaultFrame;
MoveL [[1296.612,-44.833,364.34],[0.00801,-0.29213,0.95627,0.01169],conf,extj],Speed001,Zone001,Tool_Mill_Spindle \WObj:=DefaultFrame;
MoveL [[1298.546,-44.324,364.351],[0.00809,-0.29213,0.95627,0.01193],conf,extj],Speed001,Zone001,Tool_Mill_Spindle \WObj:=DefaultFrame;
MoveL [[1300.319,-43.505,364.355],[0.00813,-0.29213,0.95627,0.01213],conf,extj],Speed001,Zone001,Tool_Mill_Spindle \WObj:=DefaultFrame;
MoveL [[1301.848,-42.215,364.351],[0.0082,-0.29213,0.95626,0.01228],conf,extj],Speed001,Zone001,Tool_Mill_Spindle \WObj:=DefaultFrame;
MoveL [[1303.377,-40.925,364.347],[0.00822,-0.29213,0.95626,0.01243],conf,extj],Speed001,Zone001,Tool_Mill_Spindle \WObj:=DefaultFrame;
MoveL [[1304.906,-39.635,364.343],[0.00821,-0.29213,0.95626,0.01257],conf,extj],Speed001,Zone001,Tool_Mill_Spindle \WObj:=DefaultFrame;
MoveL [[1306.298,-38.206,364.337],[0.00819,-0.29213,0.95626,0.01269],conf,extj],Speed001,Zone001,Tool_Mill_Spindle \WObj:=DefaultFrame;
MoveL [[1307.604,-36.691,364.329],[0.00815,-0.29213,0.95626,0.0128],conf,extj],Speed001,Zone001,Tool_Mill_Spindle \WObj:=DefaultFrame;
MoveL [[1308.909,-35.177,364.321],[0.00808,-0.29213,0.95626,0.01291],conf,extj],Speed001,Zone001,Tool_Mill_Spindle \WObj:=DefaultFrame;
MoveL [[1310.215,-33.662,364.313],[0.008,-0.29213,0.95626,0.013],conf,extj],Speed001,Zone001,Tool_Mill_Spindle \WObj:=DefaultFrame;
MoveL [[1311.63,-32.252,364.307],[0.00788,-0.29214,0.95625,0.01308],conf,extj],Speed001,Zone001,Tool_Mill_Spindle \WObj:=DefaultFrame;
MoveL [[1313.071,-30.867,364.301],[0.00777,-0.29214,0.95625,0.01314],conf,extj],Speed001,Zone001,Tool_Mill_Spindle \WObj:=DefaultFrame;
MoveL [[1314.512,-29.482,364.294],[0.00766,-0.29214,0.95625,0.01318],conf,extj],Speed001,Zone001,Tool_Mill_Spindle \WObj:=DefaultFrame;
MoveL [[1315.957,-28.102,364.287],[0.00757,-0.29214,0.95625,0.01321],conf,extj],Speed001,Zone001,Tool_Mill_Spindle \WObj:=DefaultFrame;
MoveL [[1317.659,-27.054,364.284],[0.0075,-0.29214,0.95625,0.0132],conf,extj],Speed001,Zone001,Tool_Mill_Spindle \WObj:=DefaultFrame;
MoveL [[1319.362,-26.005,364.282],[0.00745,-0.29214,0.95625,0.0132],conf,extj],Speed001,Zone001,Tool_Mill_Spindle \WObj:=DefaultFrame;
MoveL [[1321.063,-24.957,364.279],[0.00742,-0.29214,0.95625,0.01319],conf,extj],Speed001,Zone001,Tool_Mill_Spindle \WObj:=DefaultFrame;
MoveL [[1322.814,-24.015,364.278],[0.00741,-0.29214,0.95625,0.01318],conf,extj],Speed001,Zone001,Tool_Mill_Spindle \WObj:=DefaultFrame;
MoveL [[1324.727,-23.439,364.282],[0.00743,-0.29214,0.95626,0.01314],conf,extj],Speed001,Zone001,Tool_Mill_Spindle \WObj:=DefaultFrame;
MoveL [[1326.638,-22.865,364.286],[0.00748,-0.29214,0.95626,0.01312],conf,extj],Speed001,Zone001,Tool_Mill_Spindle \WObj:=DefaultFrame;
MoveL [[1328.554,-22.289,364.291],[0.00754,-0.29214,0.95626,0.0131],conf,extj],Speed001,Zone001,Tool_Mill_Spindle \WObj:=DefaultFrame;
MoveL [[1330.506,-21.961,364.3],[0.00761,-0.29214,0.95626,0.01307],conf,extj],Speed001,Zone001,Tool_Mill_Spindle \WObj:=DefaultFrame;
MoveL [[1332.505,-21.958,364.314],[0.00769,-0.29214,0.95626,0.01304],conf,extj],Speed001,Zone001,Tool_Mill_Spindle \WObj:=DefaultFrame;
MoveL [[1334.504,-21.955,364.329],[0.00777,-0.29214,0.95626,0.01302],conf,extj],Speed001,Zone001,Tool_Mill_Spindle \WObj:=DefaultFrame;
MoveL [[1336.504,-21.952,364.344],[0.00786,-0.29214,0.95626,0.01299],conf,extj],Speed001,Zone001,Tool_Mill_Spindle \WObj:=DefaultFrame;
MoveL [[1338.44,-22.343,364.365],[0.00794,-0.29214,0.95626,0.01296],conf,extj],Speed001,Zone001,Tool_Mill_Spindle \WObj:=DefaultFrame;
MoveL [[1340.345,-22.951,364.388],[0.00802,-0.29213,0.95626,0.01293],conf,extj],Speed001,Zone001,Tool_Mill_Spindle \WObj:=DefaultFrame;
MoveL [[1342.251,-23.558,364.413],[0.00811,-0.29213,0.95626,0.01291],conf,extj],Speed001,Zone001,Tool_Mill_Spindle \WObj:=DefaultFrame;
MoveL [[1344.156,-24.165,364.438],[0.00819,-0.29213,0.95626,0.01288],conf,extj],Speed001,Zone001,Tool_Mill_Spindle \WObj:=DefaultFrame;
MoveL [[1345.81,-25.264,364.468],[0.00825,-0.29213,0.95626,0.01285],conf,extj],Speed001,Zone001,Tool_Mill_Spindle \WObj:=DefaultFrame;
MoveL [[1347.425,-26.444,364.498],[0.00831,-0.29213,0.95626,0.01282],conf,extj],Speed001,Zone001,Tool_Mill_Spindle \WObj:=DefaultFrame;
MoveL [[1349.04,-27.623,364.53],[0.00836,-0.29213,0.95626,0.01279],conf,extj],Speed001,Zone001,Tool_Mill_Spindle \WObj:=DefaultFrame;
MoveL [[1350.62,-28.837,364.561],[0.00841,-0.29213,0.95626,0.01275],conf,extj],Speed001,Zone001,Tool_Mill_Spindle \WObj:=DefaultFrame;
MoveL [[1351.777,-30.469,364.595],[0.00844,-0.29213,0.95626,0.0127],conf,extj],Speed001,Zone001,Tool_Mill_Spindle \WObj:=DefaultFrame;
MoveL [[1352.933,-32.101,364.629],[0.00847,-0.29213,0.95626,0.01265],conf,extj],Speed001,Zone001,Tool_Mill_Spindle \WObj:=DefaultFrame;
MoveL [[1354.089,-33.733,364.663],[0.0085,-0.29213,0.95626,0.0126],conf,extj],Speed001,Zone001,Tool_Mill_Spindle \WObj:=DefaultFrame;
MoveL [[1355.08,-35.446,364.697],[0.00852,-0.29213,0.95626,0.01255],conf,extj],Speed001,Zone001,Tool_Mill_Spindle \WObj:=DefaultFrame;
MoveL [[1355.665,-37.359,364.73],[0.00853,-0.29213,0.95626,0.01251],conf,extj],Speed001,Zone001,Tool_Mill_Spindle \WObj:=DefaultFrame;
MoveL [[1356.249,-39.271,364.763],[0.00853,-0.29213,0.95626,0.01247],conf,extj],Speed001,Zone001,Tool_Mill_Spindle \WObj:=DefaultFrame;
MoveL [[1356.833,-41.183,364.796],[0.00852,-0.29212,0.95626,0.01245],conf,extj],Speed001,Zone001,Tool_Mill_Spindle \WObj:=DefaultFrame;
MoveL [[1357.112,-43.138,364.827],[0.0085,-0.29213,0.95626,0.01242],conf,extj],Speed001,Zone001,Tool_Mill_Spindle \WObj:=DefaultFrame;
MoveL [[1357.087,-45.137,364.855],[0.00846,-0.29213,0.95626,0.01239],conf,extj],Speed001,Zone001,Tool_Mill_Spindle \WObj:=DefaultFrame;
MoveL [[1357.063,-47.137,364.883],[0.00842,-0.29213,0.95626,0.01236],conf,extj],Speed001,Zone001,Tool_Mill_Spindle \WObj:=DefaultFrame;
MoveL [[1357.038,-49.137,364.912],[0.00837,-0.29213,0.95626,0.01232],conf,extj],Speed001,Zone001,Tool_Mill_Spindle \WObj:=DefaultFrame;
MoveL [[1356.609,-51.073,364.937],[0.00831,-0.29213,0.95626,0.01228],conf,extj],Speed001,Zone001,Tool_Mill_Spindle \WObj:=DefaultFrame;
MoveL [[1356.017,-52.984,364.959],[0.00825,-0.29213,0.95627,0.01223],conf,extj],Speed001,Zone001,Tool_Mill_Spindle \WObj:=DefaultFrame;
MoveL [[1355.426,-54.895,364.983],[0.0082,-0.29213,0.95627,0.01217],conf,extj],Speed001,Zone001,Tool_Mill_Spindle \WObj:=DefaultFrame;
MoveL [[1354.835,-56.806,365.007],[0.00814,-0.29213,0.95627,0.01211],conf,extj],Speed001,Zone001,Tool_Mill_Spindle \WObj:=DefaultFrame;
MoveL [[1353.811,-58.52,365.024],[0.00809,-0.29213,0.95627,0.01204],conf,extj],Speed001,Zone001,Tool_Mill_Spindle \WObj:=DefaultFrame;
MoveL [[1352.753,-60.218,365.041],[0.00805,-0.29213,0.95627,0.01196],conf,extj],Speed001,Zone001,Tool_Mill_Spindle \WObj:=DefaultFrame;
MoveL [[1351.695,-61.915,365.059],[0.008,-0.29213,0.95627,0.01187],conf,extj],Speed001,Zone001,Tool_Mill_Spindle \WObj:=DefaultFrame;
MoveL [[1350.597,-63.583,365.077],[0.00795,-0.29213,0.95627,0.01178],conf,extj],Speed001,Zone001,Tool_Mill_Spindle \WObj:=DefaultFrame;
MoveL [[1349.238,-65.051,365.09],[0.00791,-0.29213,0.95627,0.01171],conf,extj],Speed001,Zone001,Tool_Mill_Spindle \WObj:=DefaultFrame;
MoveL [[1347.88,-66.519,365.103],[0.00786,-0.29213,0.95628,0.01163],conf,extj],Speed001,Zone001,Tool_Mill_Spindle \WObj:=DefaultFrame;
MoveL [[1346.521,-67.988,365.117],[0.00781,-0.29213,0.95628,0.01156],conf,extj],Speed001,Zone001,Tool_Mill_Spindle \WObj:=DefaultFrame;
MoveL [[1345.136,-69.431,365.13],[0.00775,-0.29213,0.95628,0.01149],conf,extj],Speed001,Zone001,Tool_Mill_Spindle \WObj:=DefaultFrame;
MoveL [[1343.7,-70.824,365.143],[0.00769,-0.29213,0.95628,0.01143],conf,extj],Speed001,Zone001,Tool_Mill_Spindle \WObj:=DefaultFrame;
MoveL [[1342.265,-72.217,365.157],[0.00762,-0.29213,0.95628,0.01137],conf,extj],Speed001,Zone001,Tool_Mill_Spindle \WObj:=DefaultFrame;
MoveL [[1340.829,-73.61,365.172],[0.00755,-0.29213,0.95628,0.01131],conf,extj],Speed001,Zone001,Tool_Mill_Spindle \WObj:=DefaultFrame;
MoveL [[1339.604,-75.171,365.192],[0.00747,-0.29213,0.95628,0.01124],conf,extj],Speed001,Zone001,Tool_Mill_Spindle \WObj:=DefaultFrame;
MoveL [[1338.565,-76.881,365.218],[0.0074,-0.29213,0.95628,0.01116],conf,extj],Speed001,Zone001,Tool_Mill_Spindle \WObj:=DefaultFrame;
MoveL [[1337.527,-78.591,365.244],[0.00732,-0.29214,0.95628,0.01108],conf,extj],Speed001,Zone001,Tool_Mill_Spindle \WObj:=DefaultFrame;
MoveL [[1336.488,-80.301,365.271],[0.00723,-0.29214,0.95629,0.01099],conf,extj],Speed001,Zone001,Tool_Mill_Spindle \WObj:=DefaultFrame;
MoveL [[1336.024,-82.217,365.309],[0.00715,-0.29214,0.95629,0.01088],conf,extj],Speed001,Zone001,Tool_Mill_Spindle \WObj:=DefaultFrame;
